filter-app-android/app/src/main/assets/luts/fujixtransiii/fuji_xtrans_iii_pro_neg_std.cube
# Created by: G'MIC (https://gmic.eu)
TITLE "fuji_xtrans_iii_pro_neg_std"
# LUT size
LUT_3D_SIZE 13
# Data domain
DOMAIN_MIN 0.0 0.0 0.0
DOMAIN_MAX 1.0 1.0 1.0
# LUT data points
0.019616 0.027805 0.026513
0.048920 0.029287 0.024301
0.110427 0.042193 0.036190
0.188228 0.060519 0.054603
0.285246 0.080438 0.074079
0.392143 0.109645 0.098392
0.499251 0.149919 0.129133
0.619730 0.190997 0.168801
0.689091 0.211974 0.197502
0.743574 0.231218 0.217981
0.772195 0.244694 0.233343
0.791157 0.255127 0.251278
0.808160 0.269061 0.261012
0.016400 0.052805 0.023760
0.053526 0.058890 0.030439
0.119134 0.071696 0.042722
0.196600 0.087491 0.055614
0.291173 0.114062 0.076294
0.402312 0.142643 0.100290
0.513306 0.166745 0.128133
0.622055 0.203179 0.163658
0.698592 0.227188 0.194472
0.760016 0.245865 0.219439
0.785974 0.256780 0.229231
0.802668 0.269658 0.242842
0.837830 0.303973 0.272527
0.016633 0.108981 0.027390
0.054797 0.117564 0.029524
0.121684 0.122705 0.043863
0.206529 0.140857 0.057436
0.305269 0.166157 0.071734
0.409691 0.190261 0.087980
0.518946 0.206973 0.118406
0.621466 0.228657 0.151294
0.706611 0.257335 0.181135
0.768914 0.279356 0.203732
0.804631 0.287049 0.223210
0.836492 0.319246 0.244911
0.859600 0.346435 0.259060
0.016665 0.186261 0.022072
0.045231 0.196661 0.020472
0.108818 0.195705 0.033653
0.205052 0.212470 0.050253
0.311004 0.231275 0.066208
0.416260 0.249421 0.076955
0.521152 0.268523 0.097835
0.614642 0.285376 0.124114
0.700346 0.305178 0.155362
0.779684 0.328606 0.182688
0.844218 0.353766 0.226211
0.860678 0.363566 0.241075
0.866477 0.369007 0.248565
0.011656 0.263204 0.011328
0.032861 0.294359 0.012004
0.083993 0.301060 0.018490
0.186309 0.312318 0.031166
0.311468 0.323637 0.046453
0.415154 0.329372 0.061056
0.521060 0.343751 0.077371
0.614757 0.357321 0.103546
0.701267 0.371853 0.143136
0.775447 0.386470 0.172914
0.831722 0.403813 0.207415
0.862062 0.385170 0.226666
0.875151 0.407407 0.242754
0.005828 0.353392 0.002757
0.020579 0.390399 0.006336
0.067271 0.394202 0.007741
0.167260 0.405667 0.013951
0.301206 0.420258 0.023944
0.411053 0.423003 0.040434
0.517723 0.432267 0.061230
0.616159 0.442478 0.089814
0.698580 0.455347 0.126389
0.761267 0.472179 0.157557
0.800884 0.478393 0.181457
0.843333 0.470735 0.210972
0.887814 0.502399 0.252201
0.005269 0.411030 0.004907
0.016825 0.444597 0.005370
0.058495 0.458581 0.006485
0.149446 0.480581 0.009666
0.284907 0.497472 0.017433
0.398610 0.503144 0.027115
0.518729 0.513455 0.056279
0.611933 0.526642 0.085420
0.693691 0.534714 0.111356
0.762679 0.552072 0.145171
0.806185 0.560331 0.175170
0.830728 0.566981 0.196577
0.875517 0.587697 0.243343
0.009768 0.442852 0.010511
0.018674 0.472228 0.011515
0.047256 0.516825 0.024398
0.147091 0.517832 0.012560
0.290689 0.543692 0.015234
0.369864 0.556019 0.024811
0.515790 0.582445 0.063639
0.605118 0.597749 0.091392
0.695138 0.606754 0.126124
0.764525 0.620021 0.148169
0.807452 0.623641 0.170348
0.834153 0.638110 0.199463
0.872205 0.651215 0.243110
0.020321 0.481642 0.035506
0.025010 0.492483 0.020571
0.042302 0.556332 0.049599
0.124427 0.541290 0.026970
0.280463 0.572369 0.030699
0.367403 0.608192 0.050272
0.519901 0.647815 0.085411
0.610877 0.651346 0.100734
0.703670 0.653510 0.137709
0.772572 0.663736 0.158378
0.809043 0.666263 0.175925
0.836441 0.688825 0.208318
0.869094 0.708146 0.243614
0.023083 0.507697 0.050926
0.026501 0.496427 0.021447
0.046565 0.553254 0.052075
0.116058 0.589575 0.081676
0.269511 0.615245 0.075558
0.374707 0.640809 0.076016
0.512409 0.661259 0.096240
0.597875 0.664758 0.104335
0.682745 0.666743 0.136955
0.774610 0.669149 0.160241
0.824854 0.687606 0.197423
0.866771 0.716782 0.244117
0.895295 0.735348 0.274606
0.024053 0.516260 0.057072
0.029648 0.511849 0.032122
0.064328 0.653377 0.141198
0.108319 0.686179 0.168995
0.258146 0.683495 0.138838
0.377851 0.681666 0.113843
0.521371 0.688050 0.128980
0.593675 0.688369 0.134577
0.669527 0.693729 0.165193
0.776438 0.685216 0.179947
0.848868 0.717241 0.237239
0.892175 0.741211 0.279220
0.900990 0.743857 0.285692
0.035326 0.552559 0.038147
0.032390 0.552473 0.042532
0.066958 0.679956 0.160967
0.108104 0.707210 0.187196
0.251989 0.710814 0.166040
0.375678 0.717616 0.149792
0.539009 0.719192 0.164873
0.587460 0.722919 0.173414
0.668100 0.733617 0.205295
0.768970 0.735272 0.240316
0.831535 0.748076 0.269386
0.886236 0.754586 0.293084
0.898613 0.758068 0.301432
0.036519 0.556828 0.038846
0.033594 0.558657 0.045578
0.070757 0.680990 0.162527
0.105911 0.709369 0.192105
0.252279 0.715002 0.172578
0.372244 0.722109 0.156924
0.535144 0.730856 0.181756
0.561980 0.757847 0.223183
0.676118 0.771699 0.254524
0.778760 0.776107 0.294494
0.829339 0.784763 0.314895
0.877592 0.787851 0.335008
0.895175 0.789991 0.343691
0.020378 0.033546 0.049787
0.046864 0.041832 0.054844
0.117245 0.060418 0.075864
0.195258 0.080244 0.097262
0.260541 0.094781 0.111138
0.387512 0.131187 0.139459
0.517152 0.169930 0.171800
0.628738 0.198426 0.210433
0.728067 0.222448 0.250716
0.775709 0.243063 0.272469
0.794988 0.254145 0.279649
0.808730 0.263279 0.294468
0.860098 0.298359 0.350228
0.024828 0.069486 0.060383
0.061759 0.075042 0.067192
0.126131 0.087846 0.082300
0.203792 0.106425 0.102221
0.286943 0.126591 0.119124
0.403359 0.156729 0.142369
0.517667 0.179345 0.169888
0.619457 0.206355 0.200062
0.707189 0.234991 0.233461
0.774798 0.253339 0.266058
0.805753 0.268077 0.280570
0.839184 0.294448 0.311151
0.881593 0.322260 0.358277
0.025994 0.125119 0.070752
0.067229 0.130655 0.070901
0.131691 0.139708 0.083499
0.214096 0.156909 0.103138
0.313079 0.177680 0.122402
0.415154 0.199986 0.141187
0.521589 0.216294 0.168030
0.620771 0.237590 0.194412
0.706638 0.266955 0.224195
0.780643 0.288868 0.254309
0.834254 0.307119 0.287939
0.859954 0.329056 0.304875
0.886443 0.340306 0.344978
0.019823 0.201063 0.065977
0.060416 0.205923 0.063333
0.126505 0.211841 0.075789
0.212952 0.227995 0.093639
0.313529 0.242105 0.114357
0.419633 0.258024 0.133804
0.524942 0.275311 0.158183
0.621697 0.290592 0.179385
0.705110 0.314124 0.207301
0.784825 0.337186 0.237271
0.843775 0.355361 0.268997
0.864852 0.364015 0.280868
0.888209 0.374765 0.315555
0.010762 0.294365 0.042431
0.045309 0.305325 0.046771
0.106272 0.310568 0.063926
0.199373 0.314377 0.079173
0.307418 0.324997 0.096931
0.415577 0.338888 0.119386
0.523920 0.354202 0.146422
0.621083 0.368123 0.168758
0.706762 0.389457 0.197485
0.782619 0.409172 0.229127
0.840246 0.418140 0.253140
0.870014 0.423483 0.265569
0.899599 0.454435 0.292086
0.005706 0.383708 0.021949
0.029921 0.403339 0.031907
0.076714 0.407133 0.045764
0.171896 0.408445 0.057345
0.297719 0.416920 0.074888
0.411024 0.427709 0.100182
0.519451 0.441214 0.127490
0.621136 0.453272 0.155177
0.704957 0.469321 0.182516
0.767049 0.484618 0.206555
0.827214 0.494664 0.233720
0.883937 0.509076 0.261569
0.908104 0.537732 0.282718
0.005067 0.442682 0.032103
0.016503 0.481317 0.022983
0.055017 0.491345 0.031377
0.142227 0.491691 0.040445
0.277239 0.501411 0.059166
0.400067 0.509717 0.082799
0.513499 0.519845 0.115705
0.614318 0.537582 0.145476
0.700439 0.548391 0.168788
0.769336 0.560117 0.193430
0.829953 0.569217 0.226349
0.877046 0.578064 0.250735
0.905293 0.597538 0.276543
0.010062 0.511985 0.075860
0.020497 0.525618 0.029660
0.045812 0.552454 0.044593
0.124498 0.555482 0.042039
0.264322 0.567815 0.056359
0.375148 0.579024 0.074403
0.505033 0.593003 0.110233
0.606780 0.607565 0.145319
0.694897 0.618320 0.174333
0.768093 0.628823 0.189197
0.836658 0.641028 0.224798
0.883621 0.651108 0.256881
0.905758 0.664343 0.276724
0.026512 0.547055 0.067020
0.033342 0.557910 0.041154
0.042797 0.590114 0.074053
0.099678 0.598392 0.078040
0.245060 0.614744 0.088383
0.364408 0.631042 0.084605
0.504297 0.656883 0.115057
0.604480 0.669058 0.145474
0.692881 0.666422 0.177527
0.764398 0.687136 0.205562
0.828113 0.703475 0.226791
0.881128 0.711420 0.261046
0.912040 0.725853 0.285130
0.033903 0.558007 0.048610
0.039532 0.569644 0.047290
0.055962 0.639077 0.119342
0.099671 0.671048 0.154157
0.246878 0.677152 0.141936
0.370643 0.679181 0.119129
0.526156 0.693278 0.141156
0.600275 0.703354 0.164242
0.688291 0.698973 0.190393
0.767401 0.717406 0.223395
0.833204 0.737550 0.261029
0.888661 0.745174 0.285508
0.903565 0.744749 0.288585
0.033655 0.564027 0.067582
0.040767 0.574444 0.052850
0.069803 0.679211 0.158146
0.108624 0.704483 0.186097
0.250153 0.711054 0.171490
0.375711 0.717286 0.152753
0.543575 0.722723 0.171498
0.593948 0.733810 0.195647
0.672018 0.742938 0.225831
0.769303 0.749660 0.260676
0.841741 0.764531 0.294217
0.886590 0.757798 0.297205
0.900020 0.757103 0.299570
0.028136 0.582684 0.150646
0.040873 0.576497 0.060218
0.076395 0.689536 0.172392
0.116107 0.723791 0.212860
0.242368 0.728584 0.201764
0.370966 0.728836 0.173082
0.536793 0.733426 0.190177
0.562154 0.758020 0.224770
0.672632 0.770952 0.251654
0.772232 0.776433 0.292449
0.832386 0.787757 0.319372
0.874424 0.796283 0.342982
0.892182 0.796253 0.350240
0.023757 0.595997 0.212019
0.040674 0.583332 0.087514
0.100412 0.712439 0.204445
0.133045 0.751318 0.251398
0.232549 0.752970 0.249127
0.364332 0.743253 0.217213
0.532259 0.738171 0.201250
0.551194 0.765355 0.236287
0.664411 0.776711 0.255338
0.774764 0.784373 0.301474
0.832133 0.792451 0.324545
0.879637 0.822646 0.380811
0.892835 0.835211 0.404485
0.029458 0.058699 0.131713
0.073605 0.069896 0.133975
0.145191 0.086908 0.146099
0.240278 0.106787 0.169853
0.310972 0.125180 0.195562
0.411471 0.159013 0.229329
0.532691 0.190004 0.255369
0.642096 0.212617 0.283780
0.735889 0.228499 0.300013
0.786443 0.245016 0.317286
0.813021 0.261340 0.333411
0.859982 0.292507 0.381606
0.919525 0.328105 0.443970
0.034508 0.090556 0.132133
0.082145 0.099890 0.136288
0.147694 0.113740 0.151086
0.230138 0.129431 0.169215
0.321918 0.148292 0.192875
0.421848 0.172410 0.216741
0.529297 0.199058 0.240335
0.629575 0.221623 0.267586
0.718950 0.243688 0.291402
0.788023 0.267525 0.314352
0.838023 0.291097 0.336443
0.878601 0.316181 0.374887
0.914591 0.337362 0.413065
0.034640 0.144779 0.139549
0.082041 0.149519 0.140303
0.148286 0.161997 0.150668
0.226598 0.179961 0.165643
0.324247 0.195428 0.187864
0.425800 0.212495 0.208786
0.528118 0.232961 0.233123
0.626723 0.253752 0.258063
0.714188 0.278867 0.286230
0.789508 0.303949 0.311208
0.850290 0.324786 0.340319
0.889081 0.339159 0.365779
0.925280 0.360738 0.408693
0.028003 0.216110 0.140538
0.076159 0.222287 0.141748
0.146498 0.231470 0.148466
0.227728 0.248132 0.160273
0.323580 0.258399 0.179376
0.427185 0.268799 0.198191
0.528077 0.286023 0.223711
0.628381 0.304114 0.247950
0.714625 0.328169 0.274102
0.790084 0.350018 0.298706
0.856608 0.371346 0.332925
0.913099 0.391333 0.375287
0.940966 0.403086 0.404583
0.016899 0.297888 0.131152
0.057924 0.312080 0.132478
0.125806 0.319244 0.138734
0.216637 0.326560 0.148450
0.315272 0.336436 0.165962
0.419089 0.348590 0.188338
0.524015 0.362766 0.211142
0.624485 0.378962 0.231560
0.710140 0.401419 0.256983
0.785771 0.422426 0.282544
0.849140 0.434115 0.313358
0.910168 0.447948 0.352625
0.941366 0.457992 0.381877
0.010740 0.384064 0.118415
0.040779 0.408866 0.115807
0.095052 0.412128 0.120328
0.176277 0.416180 0.126062
0.298711 0.421359 0.150092
0.410393 0.432434 0.174193
0.517670 0.445437 0.196457
0.619844 0.459118 0.214467
0.706048 0.478764 0.237031
0.781402 0.496666 0.261579
0.848828 0.508300 0.289798
0.905779 0.521092 0.310223
0.922998 0.524498 0.324356
0.007582 0.476723 0.121392
0.025732 0.495010 0.103605
0.068615 0.500897 0.101593
0.145200 0.504714 0.111265
0.272351 0.510662 0.136727
0.400250 0.518254 0.160225
0.510627 0.529830 0.183863
0.607264 0.541899 0.207245
0.700423 0.557387 0.224284
0.779068 0.568446 0.244834
0.843013 0.577682 0.272666
0.897559 0.588163 0.293709
0.924175 0.595837 0.314202
0.006145 0.531223 0.151630
0.018478 0.552938 0.100795
0.054938 0.572235 0.105402
0.126375 0.581719 0.114543
0.248121 0.590952 0.133300
0.384427 0.596979 0.153935
0.503156 0.608591 0.177286
0.600889 0.619015 0.202333
0.691672 0.627044 0.224935
0.769663 0.637078 0.244608
0.839769 0.647853 0.269378
0.903095 0.661698 0.297321
0.939406 0.688745 0.319516
0.010305 0.563890 0.177011
0.023619 0.582074 0.112877
0.049488 0.620138 0.128014
0.107778 0.654556 0.148314
0.224529 0.663301 0.164050
0.359493 0.667154 0.163345
0.493266 0.678221 0.189425
0.601645 0.688775 0.199933
0.686895 0.689629 0.228438
0.763741 0.701541 0.250032
0.833139 0.715453 0.271522
0.897988 0.728871 0.297562
0.931887 0.744940 0.315579
0.012789 0.580492 0.197591
0.033321 0.616388 0.143275
0.061108 0.670898 0.169194
0.105541 0.698578 0.187799
0.222127 0.716296 0.206689
0.357931 0.714075 0.183717
0.513996 0.723851 0.199438
0.577106 0.740216 0.221209
0.680558 0.738055 0.239124
0.763525 0.757050 0.277699
0.829955 0.771784 0.304103
0.881076 0.777665 0.321396
0.902988 0.778330 0.326491
0.015106 0.597276 0.229379
0.032861 0.620301 0.155238
0.068468 0.696877 0.202813
0.116144 0.723280 0.216507
0.226155 0.740108 0.234746
0.358636 0.741226 0.212571
0.518059 0.743381 0.214969
0.555880 0.761306 0.235192
0.667607 0.765105 0.250274
0.766107 0.780303 0.298802
0.833057 0.792855 0.326182
0.880328 0.801116 0.349456
0.892903 0.794703 0.346876
0.014552 0.624227 0.330804
0.035340 0.625766 0.183747
0.083023 0.712511 0.224989
0.137620 0.759364 0.266185
0.225331 0.762887 0.270132
0.358932 0.759982 0.262262
0.478181 0.763978 0.267068
0.546397 0.770311 0.246143
0.663626 0.777068 0.259572
0.769831 0.787411 0.308973
0.839941 0.804700 0.345206
0.885846 0.832320 0.398178
0.895532 0.826875 0.394442
0.013941 0.629618 0.355506
0.038870 0.630719 0.196327
0.111072 0.741985 0.257767
0.143123 0.770441 0.282643
0.219933 0.769745 0.281435
0.358565 0.765814 0.280047
0.476830 0.767905 0.276182
0.556824 0.778117 0.267607
0.657172 0.786392 0.281814
0.764835 0.796270 0.324647
0.841803 0.809884 0.355198
0.890457 0.839200 0.410226
0.899070 0.844403 0.422662
0.053439 0.094409 0.251682
0.115202 0.108486 0.252466
0.192845 0.122265 0.259989
0.296400 0.139749 0.287037
0.357267 0.159866 0.329183
0.449981 0.187502 0.366094
0.551065 0.205721 0.371924
0.661179 0.228376 0.404415
0.744316 0.246910 0.392508
0.805735 0.265449 0.421337
0.846453 0.285664 0.424428
0.902372 0.312496 0.477102
0.951002 0.332112 0.526926
0.060296 0.121197 0.236550
0.115066 0.131458 0.240611
0.179439 0.143462 0.254939
0.263612 0.158545 0.274355
0.347399 0.175211 0.298756
0.443510 0.198530 0.317123
0.545571 0.222979 0.330542
0.645709 0.241231 0.364947
0.727327 0.261010 0.376604
0.799759 0.286301 0.395061
0.854713 0.308223 0.413641
0.906332 0.327520 0.439104
0.942606 0.350706 0.468848
0.056194 0.174607 0.232211
0.108454 0.178576 0.235577
0.171697 0.188961 0.246063
0.252382 0.204222 0.261099
0.343074 0.217503 0.280073
0.441945 0.233358 0.300228
0.542325 0.256032 0.320754
0.640898 0.274554 0.344318
0.724677 0.296065 0.365388
0.796865 0.321461 0.387635
0.862537 0.339719 0.410413
0.919656 0.357441 0.428380
0.956179 0.382283 0.443991
0.043666 0.242950 0.231863
0.098443 0.246186 0.234990
0.166096 0.252217 0.241003
0.250848 0.266843 0.255058
0.341650 0.277533 0.272991
0.441093 0.289260 0.290455
0.541231 0.306522 0.309808
0.640670 0.322962 0.331804
0.725767 0.342435 0.353313
0.796864 0.364454 0.376111
0.866161 0.383213 0.399459
0.926955 0.401635 0.425928
0.970218 0.417806 0.445878
0.025924 0.319790 0.228636
0.073450 0.325005 0.228216
0.146604 0.335208 0.232221
0.237997 0.343419 0.244753
0.335835 0.352669 0.261170
0.436247 0.367130 0.280827
0.538062 0.380949 0.299677
0.636433 0.395834 0.318996
0.722274 0.414447 0.337600
0.794909 0.432698 0.360350
0.863753 0.444026 0.384235
0.923344 0.454958 0.409270
0.968001 0.457250 0.436458
0.017887 0.412288 0.226034
0.051313 0.413995 0.221975
0.116348 0.422460 0.219864
0.203825 0.430839 0.227507
0.316822 0.437836 0.246951
0.426085 0.449087 0.268988
0.532060 0.460341 0.290143
0.627880 0.474723 0.307145
0.715758 0.493313 0.322562
0.792464 0.507593 0.343376
0.862852 0.513664 0.366605
0.918550 0.519560 0.382064
0.957428 0.518595 0.410597
0.011166 0.504194 0.224802
0.035387 0.504319 0.215656
0.088489 0.509574 0.206005
0.170432 0.517752 0.211958
0.288818 0.525659 0.231150
0.408941 0.533296 0.251294
0.518699 0.543739 0.273619
0.614724 0.556216 0.293085
0.706522 0.570365 0.309829
0.786751 0.578162 0.328558
0.856663 0.584162 0.349722
0.910577 0.593055 0.366007
0.952024 0.595390 0.402826
0.005730 0.555811 0.249507
0.024978 0.573679 0.222279
0.066028 0.587266 0.204758
0.145094 0.598017 0.207763
0.258560 0.606258 0.221260
0.391373 0.611761 0.238389
0.505246 0.620397 0.258230
0.605135 0.630873 0.281518
0.697107 0.639988 0.303865
0.775916 0.646224 0.323069
0.845823 0.653789 0.337357
0.912573 0.666089 0.356336
0.956212 0.683377 0.389600
0.005655 0.587313 0.304931
0.019482 0.600514 0.247288
0.052530 0.642590 0.217618
0.119674 0.673392 0.213712
0.228465 0.679305 0.226437
0.367405 0.682908 0.241669
0.492785 0.689208 0.257033
0.598793 0.698618 0.278286
0.690359 0.704775 0.300835
0.768227 0.710091 0.322508
0.835801 0.719964 0.337587
0.902225 0.736958 0.346365
0.942500 0.750883 0.356246
0.009969 0.616541 0.347103
0.029437 0.679262 0.312354
0.060389 0.703994 0.247271
0.109666 0.720765 0.232005
0.218594 0.743833 0.262069
0.359038 0.736988 0.260178
0.477587 0.747249 0.279857
0.572882 0.754837 0.282296
0.676293 0.760232 0.291803
0.762638 0.764880 0.323890
0.828660 0.775841 0.346280
0.885734 0.790583 0.360664
0.918839 0.799015 0.381042
0.017758 0.655370 0.347327
0.028510 0.687184 0.335572
0.063411 0.738155 0.308267
0.131494 0.758895 0.273508
0.221794 0.767321 0.280884
0.356516 0.764364 0.278731
0.467640 0.770325 0.287957
0.557672 0.779574 0.289463
0.664517 0.784872 0.300327
0.761998 0.786657 0.328274
0.836305 0.805188 0.361357
0.887607 0.823596 0.392461
0.912810 0.816227 0.399683
0.023722 0.677538 0.356523
0.035057 0.685817 0.285039
0.066429 0.747300 0.313033
0.144263 0.773047 0.295044
0.228739 0.773933 0.295325
0.358674 0.769858 0.290257
0.469470 0.781887 0.309996
0.569612 0.794473 0.315144
0.656186 0.801187 0.330933
0.760919 0.806552 0.355840
0.863946 0.831650 0.400580
0.893547 0.841069 0.416772
0.912428 0.841059 0.430577
0.024627 0.680141 0.360129
0.037428 0.683868 0.271291
0.071297 0.751456 0.311968
0.150809 0.777743 0.306048
0.229492 0.783675 0.322974
0.361198 0.779621 0.316543
0.472482 0.795223 0.345761
0.596420 0.814314 0.373737
0.657030 0.820546 0.387688
0.756119 0.828004 0.401944
0.867980 0.841989 0.420050
0.894749 0.845918 0.423602
0.910114 0.851412 0.443046
0.088810 0.130992 0.377981
0.161579 0.146904 0.384193
0.231441 0.152594 0.409638
0.298088 0.167952 0.406513
0.378780 0.184469 0.423780
0.472269 0.203235 0.452771
0.567149 0.222729 0.471621
0.658226 0.242086 0.478787
0.746648 0.263298 0.483987
0.818174 0.286866 0.504956
0.876276 0.310067 0.533918
0.938705 0.327873 0.564462
0.967100 0.341212 0.599113
0.087046 0.154579 0.359678
0.154268 0.168398 0.366255
0.211364 0.175576 0.372050
0.290487 0.189433 0.387722
0.374051 0.205893 0.406710
0.467567 0.226980 0.431752
0.563762 0.246300 0.448257
0.657703 0.263769 0.462643
0.736600 0.287081 0.475327
0.810140 0.310956 0.491704
0.873242 0.329839 0.507944
0.941352 0.349176 0.537298
0.979575 0.371723 0.580194
0.080232 0.203966 0.347127
0.145406 0.213832 0.354721
0.205591 0.222412 0.359801
0.283673 0.234003 0.372368
0.369862 0.245793 0.389269
0.461931 0.262291 0.407003
0.558240 0.282168 0.424870
0.653848 0.301297 0.445658
0.734669 0.320814 0.462575
0.807259 0.343331 0.480343
0.873695 0.362395 0.497609
0.939860 0.385809 0.504470
0.985619 0.402959 0.517210
0.069846 0.270744 0.342541
0.131527 0.274445 0.347114
0.196592 0.279890 0.350705
0.279317 0.292526 0.363768
0.366388 0.301997 0.377824
0.459074 0.313377 0.390720
0.556998 0.331769 0.409531
0.654100 0.349854 0.431865
0.736489 0.367687 0.449996
0.807467 0.387341 0.470100
0.874023 0.403182 0.486162
0.938190 0.417089 0.491602
0.984551 0.425389 0.496546
0.043747 0.345573 0.335374
0.098080 0.348325 0.334613
0.172078 0.356003 0.339246
0.266236 0.366345 0.352626
0.360349 0.376480 0.366981
0.456338 0.388308 0.381341
0.555882 0.402099 0.399532
0.650603 0.416136 0.417394
0.734425 0.432473 0.434860
0.805948 0.450297 0.455705
0.873801 0.458681 0.473348
0.936489 0.467412 0.487015
0.976612 0.472489 0.495279
0.027346 0.429320 0.330025
0.070008 0.430262 0.326760
0.141821 0.439835 0.325348
0.236313 0.449381 0.336006
0.346542 0.454800 0.354235
0.450182 0.464023 0.372049
0.549999 0.476590 0.389576
0.640850 0.490768 0.404624
0.727599 0.506019 0.420852
0.803831 0.518603 0.441206
0.872630 0.524045 0.458215
0.937303 0.530173 0.471527
0.974856 0.534021 0.483587
0.020738 0.514280 0.333989
0.051092 0.514290 0.324712
0.113539 0.523334 0.315385
0.202124 0.532103 0.319419
0.319318 0.538826 0.337421
0.432508 0.544499 0.354962
0.535010 0.555776 0.374636
0.628857 0.569138 0.391520
0.717726 0.581278 0.408527
0.796494 0.587801 0.427011
0.863208 0.593039 0.440138
0.916354 0.599787 0.447289
0.959545 0.610570 0.469588
0.013963 0.578500 0.342188
0.039694 0.590199 0.328271
0.092805 0.601645 0.314134
0.173334 0.611579 0.309271
0.285625 0.617809 0.321392
0.408478 0.621167 0.336750
0.518770 0.629072 0.357008
0.617494 0.639111 0.377060
0.707895 0.648090 0.397541
0.785297 0.654167 0.414027
0.854760 0.660038 0.423675
0.919162 0.667136 0.433452
0.958347 0.681532 0.449098
0.012769 0.611489 0.370179
0.027811 0.637942 0.338339
0.070013 0.669527 0.321695
0.146556 0.681103 0.308231
0.253108 0.688540 0.314987
0.381336 0.690328 0.329407
0.503826 0.695275 0.345990
0.606831 0.703308 0.365992
0.699395 0.711133 0.386812
0.774748 0.717253 0.402777
0.842312 0.725301 0.414816
0.909876 0.735001 0.422896
0.948396 0.745778 0.433124
0.023292 0.664149 0.405276
0.035196 0.712309 0.354741
0.058805 0.735604 0.336867
0.125789 0.735726 0.310815
0.230817 0.750019 0.321230
0.362209 0.748915 0.329477
0.483807 0.752619 0.347350
0.592561 0.762883 0.367638
0.688961 0.769659 0.379901
0.763168 0.772939 0.402290
0.831632 0.780645 0.420480
0.895963 0.793505 0.430285
0.937477 0.806818 0.441963
0.039023 0.741370 0.372477
0.044976 0.755716 0.357526
0.062488 0.763161 0.344093
0.142525 0.771292 0.325429
0.226214 0.775970 0.329726
0.355027 0.776318 0.336533
0.473677 0.788862 0.357323
0.590710 0.808942 0.401434
0.675557 0.814161 0.410972
0.759808 0.809334 0.409593
0.835093 0.815867 0.426819
0.895048 0.828853 0.444327
0.931609 0.836622 0.455095
0.042742 0.758527 0.361454
0.046006 0.760851 0.352846
0.074709 0.769589 0.350130
0.179862 0.796477 0.368744
0.238084 0.800330 0.374116
0.361739 0.799172 0.368162
0.473210 0.813859 0.397248
0.606365 0.829800 0.428377
0.659879 0.831409 0.428634
0.755941 0.833683 0.432054
0.852019 0.840059 0.440108
0.895066 0.848553 0.452208
0.926194 0.857776 0.471135
0.043850 0.760142 0.359184
0.045547 0.758112 0.348130
0.078886 0.768906 0.352065
0.193871 0.804522 0.391119
0.245569 0.814695 0.416174
0.367822 0.817052 0.409355
0.467810 0.831290 0.435325
0.606963 0.833634 0.435256
0.659769 0.834789 0.433989
0.757951 0.840064 0.441345
0.861222 0.854403 0.466660
0.899558 0.863398 0.481529
0.929273 0.871815 0.505220
0.141338 0.153845 0.510482
0.213909 0.169711 0.524202
0.282727 0.179732 0.544192
0.349515 0.193888 0.532791
0.431323 0.207266 0.545593
0.508919 0.225437 0.561846
0.592199 0.245351 0.570021
0.678900 0.266545 0.583691
0.755584 0.287972 0.592048
0.828021 0.312108 0.599366
0.893660 0.334147 0.623129
0.955575 0.348411 0.641580
0.981490 0.369789 0.674699
0.125112 0.185119 0.485624
0.201448 0.203013 0.493514
0.258486 0.213410 0.497329
0.327451 0.224576 0.507635
0.408088 0.239338 0.525422
0.496970 0.258220 0.542214
0.586003 0.277222 0.553069
0.674650 0.295544 0.567052
0.751730 0.317199 0.580565
0.822711 0.337306 0.589756
0.885117 0.353029 0.598534
0.954358 0.369714 0.617765
0.990811 0.388602 0.655056
0.112489 0.232720 0.469083
0.189284 0.249382 0.478706
0.246547 0.257832 0.479714
0.316482 0.267943 0.490850
0.398031 0.280200 0.506379
0.487469 0.296487 0.521776
0.579205 0.313597 0.536843
0.667248 0.330857 0.551501
0.747558 0.347822 0.565017
0.818630 0.367375 0.577785
0.883929 0.385839 0.588534
