filter-app-android/app/src/main/assets/luts/fujixtransiii/fuji_xtrans_iii_pro_neg_std.cube
# Created by: G'MIC (https://gmic.eu)
TITLE "fuji_xtrans_iii_pro_neg_std"
# LUT size
LUT_3D_SIZE 5
# Data domain
DOMAIN_MIN 0.0 0.0 0.0
DOMAIN_MAX 1.0 1.0 1.0
# LUT data points
0.019616 0.027805 0.026513
0.188228 0.060519 0.054603
0.499251 0.149919 0.129133
0.743574 0.231218 0.217981
0.808160 0.269061 0.261012
0.016665 0.186261 0.022072
0.205052 0.212470 0.050253
0.521152 0.268523 0.097835
0.779684 0.328606 0.182688
0.866477 0.369007 0.248565
0.005269 0.411030 0.004907
0.149446 0.480581 0.009666
0.518729 0.513455 0.056279
0.762679 0.552072 0.145171
0.875517 0.587697 0.243343
0.023083 0.507697 0.050926
0.116058 0.589575 0.081676
0.512409 0.661259 0.096240
0.774610 0.669149 0.160241
0.895295 0.735348 0.274606
0.036519 0.556828 0.038846
0.105911 0.709369 0.192105
0.535144 0.730856 0.181756
0.778760 0.776107 0.294494
0.895175 0.789991 0.343691
0.053439 0.094409 0.251682
0.296400 0.139749 0.287037
0.551065 0.205721 0.371924
0.805735 0.265449 0.421337
0.951002 0.332112 0.526926
0.043666 0.242950 0.231863
0.250848 0.266843 0.255058
0.541231 0.306522 0.309808
0.796864 0.364454 0.376111
0.970218 0.417806 0.445878
0.011166 0.504194 0.224802
0.170432 0.517752 0.211958
0.518699 0.543739 0.273619
0.786751 0.578162 0.328558
0.952024 0.595390 0.402826
0.009969 0.616541 0.347103
0.109666 0.720765 0.232005
0.477587 0.747249 0.279857
0.762638 0.764880 0.323890
0.918839 0.799015 0.381042
0.024627 0.680141 0.360129
0.150809 0.777743 0.306048
0.472482 0.795223 0.345761
0.756119 0.828004 0.401944
0.910114 0.851412 0.443046
0.204616 0.169135 0.630333
0.394583 0.208834 0.646777
0.626320 0.271094 0.675748
0.841320 0.339964 0.696706
0.990409 0.394801 0.733967
0.134460 0.327122 0.573460
0.345705 0.355719 0.593011
0.596063 0.394284 0.629423
0.826977 0.433550 0.660791
0.988603 0.478068 0.698287
0.068505 0.548852 0.534907
0.287938 0.565831 0.546495
0.575957 0.583931 0.578049
0.813591 0.606444 0.616886
0.978374 0.634871 0.638672
0.060366 0.737071 0.573462
0.210190 0.760149 0.503204
0.521468 0.773738 0.534849
0.782712 0.785240 0.566486
0.963143 0.829012 0.608665
0.082828 0.792181 0.613781
0.226930 0.827178 0.515493
0.477134 0.837049 0.528544
0.806273 0.866200 0.584317
0.951876 0.908209 0.627440
0.426089 0.188001 0.886190
0.545149 0.268380 0.884292
0.712654 0.346383 0.904443
0.884666 0.420278 0.924729
0.995386 0.492033 0.968192
0.249884 0.431576 0.859511
0.469867 0.473650 0.869478
0.666464 0.497576 0.886895
0.859228 0.534744 0.905599
0.992468 0.569797 0.928944
0.229133 0.616264 0.809048
0.427386 0.635348 0.814576
0.636390 0.648938 0.835721
0.844216 0.668849 0.857388
0.988935 0.697728 0.889757
0.222851 0.792162 0.783686
0.370194 0.801117 0.777715
0.598628 0.806785 0.794948
0.820868 0.815247 0.822213
0.980453 0.863874 0.860292
0.264254 0.867415 0.797863
0.356181 0.892490 0.806788
0.621541 0.904592 0.835373
0.847143 0.909500 0.832669
0.979783 0.941096 0.855899
0.624526 0.244074 0.993164
0.696011 0.316849 0.995908
0.821089 0.422887 0.995263
0.939582 0.551013 0.994735
0.996106 0.614500 1.000000
0.442574 0.506015 0.992418
0.613137 0.588247 0.993299
0.763935 0.614608 0.993607
0.913829 0.657880 0.993502
0.996575 0.656256 1.000000
0.227514 0.696145 0.985053
0.547873 0.732669 0.990746
0.726292 0.743651 0.989803
0.887330 0.759595 0.988848
0.994103 0.769185 0.998711
0.382324 0.855056 0.976667
0.524996 0.869886 0.981579
0.712576 0.870835 0.985243
0.876631 0.879733 0.991157
0.991656 0.901756 0.993272
0.438228 0.928240 0.941076
0.482200 0.926547 0.938701
0.691932 0.932903 0.959330
0.889161 0.946234 0.991952
0.983029 0.964295 0.983576
