filter-app-android/app/src/main/assets/luts/print/fuji_3513_constlmap.cube
# Created by: G'MIC (https://gmic.eu)
TITLE "fuji_3513_constlmap"
# LUT size
LUT_3D_SIZE 13
# Data domain
DOMAIN_MIN 0.0 0.0 0.0
DOMAIN_MAX 1.0 1.0 1.0
# LUT data points
0.011328 0.017837 0.021433
0.027512 0.026877 0.025170
0.051439 0.032058 0.023887
0.079775 0.035965 0.020013
0.142350 0.044617 0.013768
0.221587 0.056380 0.006870
0.300172 0.069550 0.006910
0.370369 0.079159 0.009066
0.425413 0.085193 0.011306
0.469178 0.090667 0.012383
0.504963 0.096187 0.010480
0.523719 0.097867 0.013732
0.531559 0.102480 0.018766
0.018751 0.038507 0.029675
0.033654 0.045254 0.031402
0.058079 0.050303 0.030599
0.090587 0.054899 0.027722
0.159270 0.064356 0.020480
0.246645 0.079607 0.014221
0.327010 0.093551 0.011141
0.400281 0.103062 0.009476
0.464353 0.111367 0.007023
0.506696 0.118578 0.008561
0.534642 0.118690 0.007748
0.555338 0.120562 0.006580
0.567347 0.130767 0.013351
0.018639 0.064691 0.041599
0.028467 0.068448 0.041706
0.054458 0.074270 0.039833
0.096754 0.082230 0.034408
0.179945 0.098025 0.025576
0.273286 0.116292 0.018433
0.360971 0.131444 0.012824
0.435146 0.140106 0.009214
0.497825 0.145122 0.006545
0.546311 0.150289 0.004723
0.575894 0.159428 0.004758
0.597783 0.166935 0.005162
0.608622 0.172499 0.010188
0.016047 0.095231 0.055272
0.018659 0.099990 0.054152
0.035466 0.108957 0.051100
0.096407 0.124720 0.038482
0.193581 0.144894 0.022224
0.301472 0.161527 0.015680
0.396596 0.175961 0.009475
0.474143 0.185519 0.005528
0.537476 0.192301 0.006212
0.589750 0.199748 0.003761
0.618875 0.212058 0.005846
0.640614 0.220838 0.004740
0.653794 0.223539 0.005511
0.013305 0.137741 0.072949
0.013663 0.144782 0.071340
0.018319 0.156285 0.063267
0.092356 0.178634 0.034882
0.204634 0.200647 0.012893
0.319330 0.220809 0.009500
0.426818 0.238371 0.005710
0.514944 0.248003 0.007059
0.584107 0.259852 0.011034
0.634634 0.268506 0.007498
0.662680 0.277546 0.013007
0.688496 0.289389 0.007494
0.704388 0.299316 0.007304
0.010138 0.197573 0.099124
0.015580 0.206274 0.098164
0.018110 0.219080 0.085281
0.072663 0.245807 0.045010
0.207702 0.276499 0.013900
0.343643 0.305184 0.004884
0.462193 0.326884 0.004184
0.553946 0.339434 0.016054
0.630729 0.351845 0.024950
0.682916 0.359246 0.011631
0.711170 0.367314 0.011026
0.731914 0.378820 0.011880
0.747071 0.390905 0.012763
0.004599 0.263276 0.125744
0.013445 0.275953 0.125689
0.020382 0.289845 0.114017
0.046723 0.321171 0.073313
0.210238 0.362085 0.025325
0.366527 0.400546 0.013848
0.500604 0.430077 0.007502
0.605111 0.448761 0.012364
0.679453 0.458307 0.015691
0.734532 0.468462 0.007419
0.762207 0.476489 0.011663
0.779554 0.482406 0.017337
0.792301 0.494944 0.016578
0.008919 0.328534 0.150237
0.014564 0.342420 0.149048
0.014595 0.363203 0.135239
0.042028 0.398971 0.087464
0.207962 0.449767 0.023288
0.385710 0.497402 0.029966
0.533217 0.528644 0.010979
0.651763 0.556948 0.005972
0.729622 0.568891 0.009244
0.785527 0.580165 0.006636
0.809732 0.584611 0.016511
0.830531 0.594067 0.019855
0.847781 0.608522 0.016671
0.014531 0.382320 0.168913
0.013495 0.398174 0.165898
0.008102 0.421315 0.154445
0.046416 0.463875 0.101171
0.225852 0.520036 0.023538
0.404673 0.570508 0.012217
0.560899 0.612116 0.005627
0.684382 0.644273 0.005841
0.761718 0.656789 0.023801
0.822154 0.668293 0.024745
0.850444 0.672477 0.027299
0.873393 0.685623 0.029906
0.894731 0.699670 0.035987
0.010133 0.413546 0.183078
0.014876 0.429663 0.179889
0.021073 0.457108 0.166654
0.060449 0.506961 0.105860
0.238967 0.565015 0.022231
0.425089 0.619074 0.006573
0.585623 0.666481 0.004733
0.705189 0.696186 0.014741
0.787716 0.715949 0.043998
0.849977 0.729977 0.056675
0.881810 0.735769 0.051989
0.903569 0.743582 0.055189
0.923114 0.753319 0.064697
0.010851 0.437666 0.197794
0.012363 0.455006 0.190454
0.027130 0.485885 0.169581
0.059581 0.536817 0.110080
0.255749 0.598435 0.040824
0.446912 0.652139 0.020523
0.598412 0.696370 0.011422
0.720142 0.729675 0.019866
0.812845 0.755860 0.057645
0.877156 0.768263 0.077326
0.907422 0.771958 0.070373
0.924804 0.776793 0.072375
0.937198 0.782125 0.076304
0.028872 0.461520 0.213227
0.015040 0.489365 0.200327
0.022111 0.521620 0.166529
0.067790 0.573771 0.083482
0.270365 0.631837 0.021523
0.467734 0.680204 0.021252
0.623775 0.724567 0.013418
0.746940 0.758623 0.027980
0.834413 0.781982 0.058015
0.892207 0.791714 0.077946
0.926949 0.797944 0.082135
0.943817 0.803313 0.087013
0.953167 0.806459 0.090080
0.015499 0.499325 0.235799
0.012936 0.542938 0.220530
0.028919 0.582796 0.173219
0.133551 0.625231 0.074475
0.333586 0.675369 0.021415
0.503602 0.714083 0.022050
0.648029 0.751762 0.011915
0.768439 0.779803 0.034066
0.862769 0.805947 0.065706
0.918048 0.815513 0.082422
0.955669 0.823855 0.091350
0.973054 0.829211 0.105131
0.973511 0.827358 0.122814
0.010578 0.021485 0.027912
0.022009 0.025317 0.027261
0.050950 0.031918 0.030120
0.083824 0.036825 0.030448
0.149397 0.045949 0.025193
0.238883 0.058711 0.016490
0.313812 0.067352 0.013553
0.388785 0.073123 0.011237
0.450913 0.075830 0.013158
0.494465 0.081520 0.011754
0.529081 0.084830 0.018716
0.547693 0.081646 0.023287
0.555617 0.088079 0.027323
0.018048 0.040919 0.036739
0.029156 0.045391 0.037036
0.057880 0.052328 0.038656
0.095843 0.057167 0.037803
0.165242 0.064557 0.029020
0.258678 0.076853 0.017024
0.341561 0.092625 0.023024
0.420154 0.100484 0.014724
0.485844 0.104056 0.006948
0.529763 0.109262 0.011837
0.558843 0.113482 0.017250
0.581616 0.109202 0.013949
0.592480 0.119535 0.024027
0.020473 0.066818 0.049335
0.028345 0.069329 0.048590
0.058597 0.077044 0.048087
0.104962 0.085982 0.044386
0.184893 0.099193 0.035715
0.283469 0.117167 0.024798
0.373180 0.132135 0.028687
0.456202 0.141187 0.028319
0.524995 0.142255 0.020219
0.577481 0.140952 0.010021
0.605838 0.149402 0.008575
0.625941 0.152118 0.008913
0.634942 0.164489 0.022968
0.017944 0.100692 0.068625
0.023533 0.103969 0.064331
0.046186 0.110796 0.059408
0.104502 0.126936 0.051656
0.201858 0.145236 0.035754
0.309159 0.161134 0.020849
0.406745 0.176636 0.025135
0.494240 0.188027 0.029011
0.566687 0.196074 0.022635
0.621117 0.194865 0.009821
0.650086 0.201985 0.005836
0.668044 0.211225 0.004719
0.678282 0.219704 0.013512
0.018244 0.144128 0.087659
0.024211 0.151038 0.083053
0.032898 0.161129 0.074155
0.092925 0.185268 0.056694
0.208061 0.205530 0.036741
0.333352 0.225805 0.022493
0.441748 0.243821 0.029060
0.536528 0.256358 0.030398
0.615154 0.267859 0.013874
0.665653 0.271655 0.010486
0.694096 0.278648 0.009827
0.713233 0.290794 0.004292
0.726474 0.301141 0.008196
0.018342 0.204424 0.110238
0.026132 0.212626 0.108396
0.028476 0.230373 0.094716
0.063340 0.255014 0.067684
0.209759 0.284262 0.037939
0.356913 0.314575 0.033431
0.478521 0.335682 0.038980
0.578062 0.349688 0.046604
0.658052 0.360472 0.033199
0.710898 0.365566 0.023924
0.743831 0.375502 0.010204
0.763277 0.390722 0.006633
0.776245 0.403268 0.009649
0.006927 0.275530 0.140573
0.023653 0.286222 0.139112
0.041220 0.306247 0.130856
0.056933 0.335515 0.093874
0.211655 0.378016 0.055583
0.376368 0.414954 0.052745
0.512308 0.441516 0.051007
0.624658 0.460537 0.050803
0.702778 0.470184 0.045605
0.761476 0.479620 0.039139
0.795635 0.490594 0.018837
0.817673 0.503305 0.013324
0.827765 0.514995 0.011873
0.007789 0.342176 0.168307
0.026474 0.354700 0.166296
0.049581 0.375706 0.158300
0.054956 0.414907 0.116983
0.218289 0.466823 0.068389
0.400839 0.511224 0.064348
0.542889 0.542931 0.058661
0.667264 0.572026 0.057124
0.751339 0.585703 0.051063
0.810827 0.596562 0.044022
0.845321 0.607011 0.024911
0.864901 0.616431 0.021494
0.875408 0.624735 0.019622
0.015985 0.393468 0.188208
0.020424 0.408732 0.185229
0.028393 0.433506 0.175297
0.046621 0.480527 0.125136
0.225501 0.539003 0.057114
0.419475 0.587368 0.052676
0.573807 0.628053 0.055943
0.702335 0.661479 0.064986
0.788262 0.677462 0.075916
0.848421 0.687927 0.069972
0.884725 0.696256 0.045933
0.903084 0.707007 0.042727
0.914976 0.714922 0.047439
0.018404 0.428206 0.205478
0.015644 0.443214 0.202826
0.012299 0.474123 0.187710
0.041621 0.524601 0.126007
0.218631 0.587272 0.028336
0.437476 0.641163 0.020842
0.598694 0.684388 0.047886
0.726103 0.716699 0.080212
0.815749 0.736872 0.106988
0.874780 0.749373 0.108269
0.911233 0.755899 0.093520
0.930544 0.764027 0.078815
0.942737 0.769002 0.073935
0.018305 0.454723 0.229428
0.009603 0.468547 0.220876
0.015374 0.502800 0.202539
0.043889 0.555539 0.137964
0.226881 0.620228 0.036586
0.448137 0.674042 0.020890
0.609880 0.718850 0.029659
0.744275 0.751689 0.054196
0.838042 0.773667 0.085087
0.900569 0.787645 0.102641
0.934761 0.795147 0.102382
0.953764 0.799689 0.089327
0.963270 0.801804 0.085422
0.025582 0.482551 0.260080
0.016063 0.507792 0.249898
0.018618 0.538983 0.226573
0.032045 0.594967 0.147831
0.220375 0.656265 0.041168
0.462521 0.706172 0.025191
0.627258 0.747852 0.033629
0.765168 0.780962 0.039007
0.861362 0.802395 0.068819
0.923581 0.815380 0.094580
0.956347 0.822394 0.098372
0.974389 0.826484 0.102512
0.979329 0.827559 0.116478
0.023859 0.524104 0.298626
0.032056 0.563741 0.291410
0.017135 0.599451 0.262457
0.051461 0.646038 0.194556
0.268238 0.702690 0.098401
0.491606 0.748209 0.085735
0.654042 0.779370 0.076704
0.784916 0.806344 0.060269
0.886124 0.829694 0.067922
0.950482 0.841703 0.098695
0.978646 0.846089 0.126597
0.990576 0.849039 0.163038
0.990602 0.850529 0.214214
0.012547 0.031898 0.049059
0.020978 0.030288 0.051412
0.050252 0.033569 0.055019
0.089694 0.039040 0.055070
0.154091 0.045120 0.053101
0.244946 0.053674 0.049854
0.331538 0.059972 0.050198
0.410209 0.058002 0.046900
0.477354 0.050759 0.044159
0.526133 0.047719 0.044849
0.554513 0.044821 0.046552
0.574582 0.032240 0.043409
0.583767 0.036059 0.051449
0.018443 0.048093 0.056373
0.029223 0.048430 0.057878
0.057988 0.054054 0.061047
0.099052 0.059498 0.062151
0.168014 0.069799 0.063079
0.266579 0.081495 0.059556
0.360989 0.093107 0.062316
0.443564 0.096878 0.056833
0.513531 0.092022 0.047595
0.564715 0.083195 0.037996
0.593377 0.073767 0.036648
0.616252 0.069030 0.024082
0.628020 0.066711 0.045486
0.020268 0.073247 0.069771
0.032847 0.074985 0.071521
0.061378 0.081269 0.073552
0.110672 0.090880 0.074583
0.191655 0.105311 0.074556
0.291558 0.120897 0.071093
0.390693 0.135106 0.072476
0.480114 0.141458 0.071915
0.554037 0.137689 0.056620
0.613427 0.124428 0.027278
0.643447 0.116831 0.019246
0.664234 0.113612 0.017909
0.677791 0.106962 0.042332
0.016537 0.108195 0.090524
0.030576 0.112393 0.091963
0.057642 0.119000 0.092118
0.113088 0.133711 0.089086
0.206668 0.151108 0.081603
0.318848 0.168944 0.075246
0.422914 0.185710 0.080096
0.520542 0.192158 0.078944
0.598417 0.194316 0.059992
0.654615 0.185018 0.031763
0.691164 0.180497 0.014925
0.711336 0.180769 0.015775
0.723009 0.188617 0.029675
0.016666 0.152234 0.111215
0.034347 0.160885 0.112768
0.058969 0.173690 0.113500
0.107528 0.193645 0.103387
0.218599 0.213411 0.087634
0.346345 0.235055 0.083543
0.462328 0.257479 0.092542
0.565002 0.264753 0.085893
0.646930 0.268521 0.064382
0.702024 0.271462 0.050728
0.741270 0.271396 0.022037
0.760395 0.271595 0.011551
0.771180 0.284423 0.018189
0.019395 0.218212 0.140938
0.040320 0.225558 0.142347
0.062579 0.241595 0.137966
0.106991 0.269526 0.124844
0.226299 0.299769 0.106168
0.371055 0.328519 0.102654
0.500452 0.351551 0.107527
0.607661 0.360838 0.102584
0.688900 0.367204 0.084483
0.750592 0.373044 0.067461
0.789729 0.377359 0.024700
0.810846 0.390750 0.009879
0.824967 0.399698 0.013276
0.011956 0.293021 0.175813
0.039199 0.303110 0.176248
0.077288 0.319996 0.173352
0.123325 0.353819 0.159811
0.231302 0.396873 0.135364
0.393051 0.434137 0.125811
0.535109 0.462646 0.128030
0.649896 0.479121 0.126411
0.732044 0.484393 0.110518
0.795978 0.492855 0.089359
0.837233 0.504233 0.039969
0.860956 0.518492 0.009642
0.873728 0.526427 0.015161
0.007312 0.362273 0.206696
0.036671 0.375623 0.205880
0.081334 0.394125 0.204188
0.121572 0.439161 0.178956
0.236632 0.494163 0.146520
0.410122 0.536521 0.143130
0.563491 0.570794 0.146207
0.691307 0.596446 0.150529
0.776606 0.609127 0.140592
0.843204 0.621004 0.124124
0.884546 0.629464 0.063788
0.905343 0.635170 0.027737
0.915826 0.646209 0.031895
0.015395 0.411527 0.228527
0.026849 0.427862 0.228537
0.062272 0.453190 0.224321
0.104742 0.502458 0.195343
0.239545 0.567334 0.144008
0.431576 0.618491 0.141164
0.589855 0.656680 0.149425
0.724250 0.687486 0.162788
0.812958 0.704897 0.166177
0.878865 0.717165 0.155148
0.921951 0.724999 0.080873
0.940460 0.732406 0.062735
0.949229 0.738051 0.061582
0.026537 0.447139 0.251303
0.029090 0.462771 0.250151
0.038855 0.493738 0.242623
0.062114 0.544475 0.206141
0.204279 0.612639 0.126052
0.434491 0.673024 0.095029
0.611853 0.714625 0.120191
0.749479 0.745557 0.154629
0.842493 0.765443 0.171403
0.903055 0.777738 0.181810
0.944483 0.785086 0.134906
0.964051 0.791336 0.103725
0.971827 0.794787 0.097816
0.027258 0.474398 0.277497
0.021177 0.490380 0.272105
0.018483 0.526359 0.264353
0.019602 0.578666 0.227092
0.159069 0.649645 0.130905
0.436969 0.710063 0.062464
0.627289 0.752811 0.067433
0.770034 0.783870 0.086107
0.871080 0.803992 0.110952
0.932891 0.816138 0.128269
0.966198 0.822152 0.136941
0.982538 0.826599 0.129197
0.988538 0.828269 0.136075
0.020361 0.502548 0.315291
0.009588 0.526935 0.312040
0.010245 0.563140 0.300535
0.016879 0.617750 0.258690
0.163401 0.685416 0.180186
0.442475 0.741136 0.108672
0.635877 0.781524 0.088906
0.784729 0.811951 0.073605
0.892912 0.831596 0.088955
0.954720 0.842945 0.108493
0.982897 0.848275 0.142530
0.992580 0.850088 0.185402
0.991224 0.849008 0.220030
0.012673 0.546568 0.365413
0.023209 0.579935 0.360983
0.018947 0.619617 0.352694
0.023936 0.669929 0.317674
0.214742 0.727550 0.262511
0.463932 0.772577 0.230497
0.651291 0.809677 0.214941
0.795929 0.836667 0.183201
0.903194 0.856125 0.165008
0.966876 0.865749 0.194881
0.990404 0.868162 0.247957
0.997337 0.869421 0.289823
0.996893 0.869704 0.321123
0.009953 0.040812 0.077294
0.020718 0.038865 0.084471
0.043910 0.034828 0.089519
0.091465 0.039515 0.094862
0.159888 0.044774 0.098298
0.256612 0.044083 0.100310
0.349719 0.048130 0.102369
0.429141 0.053026 0.103552
0.497162 0.046181 0.104230
0.546961 0.036627 0.109038
0.571432 0.038343 0.107988
0.590340 0.032713 0.107148
0.603577 0.029736 0.111274
0.014474 0.059025 0.091869
0.026353 0.056328 0.091960
0.053354 0.056246 0.098396
0.102060 0.062264 0.105182
0.175175 0.072592 0.112288
0.279533 0.082629 0.120050
0.378269 0.092655 0.121776
0.463318 0.096423 0.120024
0.535293 0.086151 0.118280
0.588037 0.065923 0.112010
0.618661 0.038215 0.106089
0.639028 0.032609 0.101730
0.655853 0.030816 0.105508
0.014547 0.085851 0.110071
0.031584 0.084744 0.107595
0.061766 0.087073 0.111281
0.115307 0.096656 0.119458
0.200328 0.111106 0.127345
0.302562 0.124517 0.134349
0.407742 0.139042 0.135816
0.501905 0.143002 0.133255
0.580094 0.128863 0.125419
0.642650 0.101865 0.108818
0.677432 0.070436 0.097514
0.700662 0.053694 0.091992
0.717855 0.041781 0.098649
0.013345 0.118728 0.125038
0.036390 0.122113 0.127700
0.067565 0.128124 0.131492
0.122390 0.141591 0.136126
0.213111 0.159762 0.145049
0.327818 0.179077 0.151042
0.441438 0.193032 0.148340
0.550285 0.190860 0.139047
0.635035 0.179235 0.125417
0.694399 0.160021 0.107570
0.733366 0.138527 0.087943
0.757974 0.130109 0.079974
0.769908 0.139252 0.084931
0.015681 0.167449 0.150609
0.043357 0.176376 0.154779
0.077171 0.188196 0.158712
0.127190 0.206965 0.159245
0.227396 0.225930 0.162019
0.356457 0.249319 0.166502
0.481523 0.268978 0.167193
0.597873 0.266551 0.151846
0.686949 0.263197 0.136531
0.743925 0.256644 0.110486
0.788142 0.252925 0.071918
0.809493 0.253456 0.068181
0.822559 0.266698 0.076834
0.019147 0.239309 0.186416
0.049408 0.245876 0.188644
0.087452 0.255641 0.190748
0.147798 0.285377 0.191606
0.244809 0.314403 0.188962
0.379606 0.344263 0.190157
0.515507 0.368332 0.194042
0.637865 0.373089 0.178728
0.732328 0.375492 0.155920
0.795097 0.378184 0.123949
0.837094 0.378247 0.078392
0.856171 0.387860 0.066104
0.871990 0.399769 0.066400
0.016472 0.313205 0.221700
0.052467 0.322798 0.224792
0.099080 0.338044 0.228370
0.166344 0.372348 0.229759
0.263804 0.415255 0.219028
0.404813 0.457373 0.217696
0.547243 0.485702 0.223643
0.673462 0.500054 0.214798
0.770452 0.504056 0.185698
0.837205 0.512485 0.149863
0.881121 0.518675 0.097196
0.901511 0.529148 0.071363
0.914335 0.539680 0.074578
0.010616 0.383964 0.254687
0.052520 0.396854 0.258895
0.104757 0.415195 0.261597
0.165897 0.459384 0.253068
0.264639 0.513595 0.238506
0.428823 0.565329 0.236600
0.578938 0.599446 0.242984
0.708312 0.623162 0.253408
0.803204 0.635039 0.232291
0.877466 0.643824 0.190493
0.924368 0.651261 0.130886
0.947636 0.660238 0.069380
0.956421 0.670660 0.085468
0.013568 0.434504 0.282756
0.038485 0.449131 0.286713
0.089750 0.473893 0.287869
0.140428 0.523919 0.278600
0.238148 0.597810 0.234683
0.427855 0.653593 0.225590
0.601173 0.692281 0.229828
0.740431 0.719643 0.256980
0.834458 0.734877 0.269684
0.904441 0.745294 0.237751
0.953371 0.753022 0.165611
0.976286 0.758108 0.119728
0.982712 0.763177 0.132130
0.026375 0.468809 0.308495
0.030115 0.485048 0.311667
0.060394 0.515966 0.312968
0.084896 0.567890 0.299367
0.185652 0.641824 0.244291
0.415164 0.710042 0.190418
0.615100 0.750165 0.200410
0.767083 0.778853 0.224745
0.867777 0.796876 0.235093
0.930900 0.806919 0.241601
0.972910 0.812796 0.201188
0.990424 0.818985 0.178272
0.994956 0.822641 0.183563
0.033849 0.495315 0.335715
0.028053 0.515556 0.339114
0.023606 0.551284 0.341499
0.033914 0.601428 0.328186
0.141136 0.673497 0.275561
0.403197 0.741420 0.211808
0.619037 0.785860 0.175699
0.786692 0.817983 0.136335
0.897015 0.836492 0.156453
0.958761 0.844925 0.188120
0.987300 0.848547 0.223077
0.996427 0.851379 0.251384
0.998287 0.853002 0.277488
0.020963 0.521183 0.375324
0.012414 0.549801 0.381979
0.008112 0.587525 0.383396
0.016251 0.640615 0.367718
0.127343 0.707358 0.329671
0.414890 0.767754 0.286491
0.630248 0.809457 0.257982
0.786606 0.838317 0.225730
0.904095 0.858741 0.215481
0.976373 0.870197 0.193769
0.995473 0.871467 0.258476
0.996217 0.870707 0.336381
0.998096 0.871146 0.358843
0.010026 0.563328 0.426551
0.018193 0.601010 0.436434
0.016496 0.641069 0.437831
0.016909 0.689667 0.423611
0.174311 0.746728 0.397387
0.444643 0.795372 0.375472
0.643286 0.832103 0.363109
0.791372 0.858840 0.344189
0.902117 0.877656 0.334770
0.970276 0.888064 0.334727
0.995938 0.890215 0.375526
0.999206 0.889083 0.423640
0.999051 0.888854 0.442163
0.005032 0.054479 0.116982
0.015005 0.052065 0.130370
0.038793 0.042285 0.149292
0.089596 0.042354 0.155426
0.164997 0.045941 0.160746
0.266231 0.045090 0.166398
0.360787 0.047444 0.172773
0.444220 0.052008 0.175570
0.511446 0.050310 0.180000
0.557201 0.049218 0.188513
0.584090 0.046120 0.192647
0.603337 0.041922 0.193058
0.616784 0.039060 0.195826
0.006951 0.073234 0.135388
0.016293 0.066635 0.145112
0.043086 0.061987 0.161641
0.100525 0.067782 0.168339
0.181915 0.075472 0.178878
0.292563 0.083345 0.189425
0.391666 0.095509 0.192997
0.478644 0.100321 0.196802
0.552822 0.085234 0.199302
0.602101 0.071550 0.201844
0.631592 0.047437 0.200997
0.653656 0.036090 0.200760
0.668292 0.031837 0.205092
0.008402 0.100980 0.158824
0.027505 0.099895 0.161951
0.058894 0.102517 0.170980
0.113767 0.106605 0.186998
0.202214 0.119389 0.202833
0.313596 0.132235 0.211890
0.420944 0.146107 0.212750
0.520237 0.148074 0.215265
0.599459 0.128669 0.213097
0.659454 0.099973 0.213006
0.692702 0.070080 0.203428
0.714132 0.052953 0.207844
0.726874 0.050343 0.211791
0.014008 0.139612 0.182578
0.038331 0.142331 0.185222
0.073874 0.148151 0.191341
0.125714 0.156333 0.209509
0.216829 0.172487 0.230120
0.338938 0.190477 0.238171
0.458399 0.200250 0.232204
0.571888 0.195479 0.230212
0.660641 0.178024 0.223535
0.720366 0.147356 0.216366
0.756058 0.126639 0.209864
0.769456 0.135760 0.212162
0.779738 0.147563 0.218068
0.019536 0.192527 0.215649
0.047898 0.199728 0.219430
0.086345 0.208898 0.224853
0.139051 0.224068 0.236355
0.230221 0.244097 0.257484
0.365146 0.267984 0.263361
0.498294 0.278726 0.263698
0.622574 0.273102 0.248111
0.719172 0.264132 0.238765
0.771329 0.255563 0.230266
0.805462 0.254851 0.225694
0.822207 0.262998 0.227052
0.833454 0.275713 0.230388
0.023577 0.263038 0.252034
0.057275 0.271424 0.257311
0.099820 0.283656 0.263562
0.162612 0.306554 0.276057
0.257134 0.334178 0.289149
0.389278 0.366402 0.293940
0.528605 0.387728 0.297655
0.662506 0.390743 0.276901
0.767730 0.391830 0.256764
0.823479 0.389312 0.242398
0.857451 0.391505 0.230809
0.874446 0.402309 0.236569
0.887444 0.415582 0.245840
0.024415 0.338729 0.289220
0.062575 0.348505 0.294328
0.113451 0.365899 0.302759
0.184298 0.396202 0.319606
0.283171 0.439964 0.325601
0.414362 0.483950 0.327658
0.557799 0.514379 0.332612
0.700797 0.528380 0.316040
0.805453 0.534487 0.286717
0.868598 0.535168 0.258550
0.909575 0.537875 0.233174
0.926128 0.549729 0.249318
0.933876 0.560796 0.252489
0.023351 0.411112 0.324138
0.068700 0.423416 0.330645
0.118812 0.445072 0.340177
0.181916 0.484092 0.349608
0.276124 0.537006 0.352161
0.424530 0.595074 0.343886
0.585389 0.632701 0.349350
0.725641 0.655285 0.366934
0.830632 0.667166 0.339120
0.909638 0.673610 0.287153
0.955462 0.679117 0.245334
0.973448 0.688087 0.245720
0.976709 0.694670 0.253896
0.019576 0.465441 0.356454
0.058888 0.479653 0.361932
0.107118 0.505194 0.370269
0.157309 0.549407 0.377657
0.235157 0.624902 0.363942
0.404683 0.684648 0.342704
0.604150 0.727871 0.333852
0.753721 0.755038 0.369022
0.857567 0.768139 0.373894
0.931573 0.778393 0.339004
0.976188 0.783865 0.294396
0.995450 0.787752 0.277067
0.997583 0.795971 0.299588
0.018874 0.500168 0.387820
0.026201 0.515434 0.392691
0.067291 0.545636 0.400731
0.106551 0.595363 0.403971
0.168187 0.675543 0.380373
0.376448 0.738742 0.351324
0.606384 0.783334 0.337638
0.778408 0.815503 0.346157
0.888000 0.830957 0.340566
0.949240 0.837454 0.346098
0.980378 0.838957 0.354250
0.994709 0.845516 0.346666
0.999366 0.850306 0.367494
0.020268 0.524083 0.416643
0.016312 0.543855 0.423586
0.025811 0.575382 0.432467
0.044700 0.626572 0.429703
0.102258 0.701945 0.413988
0.357634 0.769620 0.382780
0.602645 0.814937 0.363149
0.783589 0.847895 0.352693
0.899815 0.865038 0.339713
0.963690 0.871134 0.363516
0.986610 0.872724 0.409514
0.996083 0.876558 0.422612
0.999636 0.878718 0.433449
0.010227 0.549243 0.454691
0.013607 0.577310 0.462728
0.012694 0.611060 0.475595
0.016247 0.662822 0.473861
0.074295 0.735625 0.464534
0.367888 0.795884 0.449456
0.612684 0.835303 0.424531
0.781719 0.864798 0.417888
0.901043 0.884152 0.404029
0.972756 0.895655 0.409061
0.994506 0.896019 0.452268
0.996453 0.894887 0.486770
0.999874 0.896302 0.501219
0.014200 0.589847 0.503715
0.023344 0.626354 0.519160
0.021954 0.663281 0.531856
0.011284 0.707697 0.524950
0.121564 0.768294 0.520410
0.412100 0.819187 0.514763
0.622857 0.854118 0.507169
0.782575 0.880871 0.500672
0.897220 0.899887 0.491241
0.962851 0.909569 0.499213
0.993107 0.910784 0.517748
0.998468 0.909893 0.542750
1.000000 0.912378 0.572461
0.003777 0.080015 0.173043
0.006679 0.072236 0.187360
0.033905 0.055037 0.218090
0.087073 0.044757 0.230814
0.169446 0.046392 0.239017
0.271678 0.050187 0.245881
0.370609 0.052539 0.255599
0.457991 0.049290 0.262003
0.523074 0.052421 0.268591
0.569231 0.046014 0.272426
0.599187 0.040366 0.280467
0.616904 0.042253 0.280677
0.630462 0.039899 0.280495
0.003221 0.096410 0.191054
0.013194 0.091545 0.202006
0.038360 0.078761 0.228379
0.094957 0.078712 0.247015
0.181668 0.083762 0.262968
0.298203 0.093798 0.272750
0.402341 0.103823 0.280254
0.492317 0.102881 0.286370
0.566370 0.090882 0.291994
0.614640 0.065840 0.293498
0.644915 0.047242 0.300492
0.666733 0.038859 0.303417
0.680568 0.036751 0.304487
0.007370 0.125044 0.216311
0.027225 0.125361 0.222345
0.062309 0.129074 0.232982
0.110378 0.128957 0.263362
0.194753 0.132960 0.291682
0.320277 0.146725 0.304675
0.434406 0.158474 0.310104
0.533209 0.158476 0.316749
0.616223 0.134256 0.319959
0.672963 0.101641 0.322688
0.702823 0.075652 0.323529
