filter-app-android/app/src/main/assets/luts/print/fuji_3513_constlmap.cube
# Created by: G'MIC (https://gmic.eu)
TITLE "fuji_3513_constlmap"
# LUT size
LUT_3D_SIZE 7
# Data domain
DOMAIN_MIN 0.0 0.0 0.0
DOMAIN_MAX 1.0 1.0 1.0
# LUT data points
0.011328 0.017837 0.021433
0.051439 0.032058 0.023887
0.142350 0.044617 0.013768
0.300172 0.069550 0.006910
0.425413 0.085193 0.011306
0.504963 0.096187 0.010480
0.531559 0.102480 0.018766
0.018639 0.064691 0.041599
0.054458 0.074270 0.039833
0.179945 0.098025 0.025576
0.360971 0.131444 0.012824
0.497825 0.145122 0.006545
0.575894 0.159428 0.004758
0.608622 0.172499 0.010188
0.013305 0.137741 0.072949
0.018319 0.156285 0.063267
0.204634 0.200647 0.012893
0.426818 0.238371 0.005710
0.584107 0.259852 0.011034
0.662680 0.277546 0.013007
0.704388 0.299316 0.007304
0.004599 0.263276 0.125744
0.020382 0.289845 0.114017
0.210238 0.362085 0.025325
0.500604 0.430077 0.007502
0.679453 0.458307 0.015691
0.762207 0.476489 0.011663
0.792301 0.494944 0.016578
0.014531 0.382320 0.168913
0.008102 0.421315 0.154445
0.225852 0.520036 0.023538
0.560899 0.612116 0.005627
0.761718 0.656789 0.023801
0.850444 0.672477 0.027299
0.894731 0.699670 0.035987
0.010851 0.437666 0.197794
0.027130 0.485885 0.169581
0.255749 0.598435 0.040824
0.598412 0.696370 0.011422
0.812845 0.755860 0.057645
0.907422 0.771958 0.070373
0.937198 0.782125 0.076304
0.015499 0.499325 0.235799
0.028919 0.582796 0.173219
0.333586 0.675369 0.021415
0.648029 0.751762 0.011915
0.862769 0.805947 0.065706
0.955669 0.823855 0.091350
0.973511 0.827358 0.122814
0.012547 0.031898 0.049059
0.050252 0.033569 0.055019
0.154091 0.045120 0.053101
0.331538 0.059972 0.050198
0.477354 0.050759 0.044159
0.554513 0.044821 0.046552
0.583767 0.036059 0.051449
0.020268 0.073247 0.069771
0.061378 0.081269 0.073552
0.191655 0.105311 0.074556
0.390693 0.135106 0.072476
0.554037 0.137689 0.056620
0.643447 0.116831 0.019246
0.677791 0.106962 0.042332
0.016666 0.152234 0.111215
0.058969 0.173690 0.113500
0.218599 0.213411 0.087634
0.462328 0.257479 0.092542
0.646930 0.268521 0.064382
0.741270 0.271396 0.022037
0.771180 0.284423 0.018189
0.011956 0.293021 0.175813
0.077288 0.319996 0.173352
0.231302 0.396873 0.135364
0.535109 0.462646 0.128030
0.732044 0.484393 0.110518
0.837233 0.504233 0.039969
0.873728 0.526427 0.015161
0.015395 0.411527 0.228527
0.062272 0.453190 0.224321
0.239545 0.567334 0.144008
0.589855 0.656680 0.149425
0.812958 0.704897 0.166177
0.921951 0.724999 0.080873
0.949229 0.738051 0.061582
0.027258 0.474398 0.277497
0.018483 0.526359 0.264353
0.159069 0.649645 0.130905
0.627289 0.752811 0.067433
0.871080 0.803992 0.110952
0.966198 0.822152 0.136941
0.988538 0.828269 0.136075
0.012673 0.546568 0.365413
0.018947 0.619617 0.352694
0.214742 0.727550 0.262511
0.651291 0.809677 0.214941
0.903194 0.856125 0.165008
0.990404 0.868162 0.247957
0.996893 0.869704 0.321123
0.005032 0.054479 0.116982
0.038793 0.042285 0.149292
0.164997 0.045941 0.160746
0.360787 0.047444 0.172773
0.511446 0.050310 0.180000
0.584090 0.046120 0.192647
0.616784 0.039060 0.195826
0.008402 0.100980 0.158824
0.058894 0.102517 0.170980
0.202214 0.119389 0.202833
0.420944 0.146107 0.212750
0.599459 0.128669 0.213097
0.692702 0.070080 0.203428
0.726874 0.050343 0.211791
0.019536 0.192527 0.215649
0.086345 0.208898 0.224853
0.230221 0.244097 0.257484
0.498294 0.278726 0.263698
0.719172 0.264132 0.238765
0.805462 0.254851 0.225694
0.833454 0.275713 0.230388
0.024415 0.338729 0.289220
0.113451 0.365899 0.302759
0.283171 0.439964 0.325601
0.557799 0.514379 0.332612
0.805453 0.534487 0.286717
0.909575 0.537875 0.233174
0.933876 0.560796 0.252489
0.019576 0.465441 0.356454
0.107118 0.505194 0.370269
0.235157 0.624902 0.363942
0.604150 0.727871 0.333852
0.857567 0.768139 0.373894
0.976188 0.783865 0.294396
0.997583 0.795971 0.299588
0.020268 0.524083 0.416643
0.025811 0.575382 0.432467
0.102258 0.701945 0.413988
0.602645 0.814937 0.363149
0.899815 0.865038 0.339713
0.986610 0.872724 0.409514
0.999636 0.878718 0.433449
0.014200 0.589847 0.503715
0.021954 0.663281 0.531856
0.121564 0.768294 0.520410
0.622857 0.854118 0.507169
0.897220 0.899887 0.491241
0.993107 0.910784 0.517748
1.000000 0.912378 0.572461
0.006670 0.108793 0.222348
0.017390 0.066514 0.282892
0.170563 0.042359 0.320300
0.381212 0.059660 0.342253
0.535810 0.050288 0.356656
0.612845 0.040867 0.366116
0.643225 0.041801 0.370860
0.006154 0.157365 0.278365
0.058925 0.157629 0.297511
0.187674 0.145402 0.384271
0.443761 0.169421 0.411407
0.621532 0.154376 0.424043
0.714475 0.073905 0.434522
0.747041 0.060374 0.448844
0.016336 0.253992 0.354713
0.092324 0.264664 0.373918
0.219522 0.280555 0.466569
0.509396 0.312912 0.498025
0.732846 0.292607 0.508461
0.817972 0.283618 0.511179
0.843957 0.304594 0.520055
0.019861 0.400830 0.448897
0.128376 0.432786 0.472956
0.308077 0.501101 0.527289
0.573500 0.565912 0.581756
0.819932 0.583841 0.577305
0.909531 0.588522 0.576725
0.939060 0.611609 0.586616
0.008032 0.532218 0.527499
0.117893 0.573673 0.556000
0.268624 0.678129 0.609800
0.585814 0.790290 0.627592
0.874473 0.832519 0.638098
0.972514 0.835945 0.632334
0.996776 0.851646 0.637530
0.001356 0.581949 0.577711
0.022368 0.639992 0.615173
0.088965 0.757092 0.668630
0.561922 0.868132 0.681786
0.879061 0.916211 0.690588
0.982609 0.928776 0.711046
0.999729 0.932592 0.723988
0.001732 0.646245 0.645804
0.004301 0.713126 0.700295
0.030659 0.809753 0.743825
0.577467 0.897295 0.764559
0.876370 0.941508 0.754883
0.991641 0.957529 0.758497
0.999903 0.957692 0.796923
0.005763 0.153989 0.305657
0.011233 0.134908 0.356137
0.177201 0.062717 0.455672
0.392194 0.072994 0.485186
0.551825 0.075477 0.499533
0.628978 0.060501 0.511937
0.661604 0.036057 0.528485
0.006326 0.212011 0.379805
0.027476 0.200235 0.416996
0.182452 0.143090 0.554975
0.451430 0.165093 0.581179
0.635166 0.176957 0.595255
0.727420 0.092294 0.614470
0.763792 0.060590 0.634685
0.005446 0.303129 0.468262
0.029744 0.309421 0.496049
0.153653 0.299426 0.648430
0.514075 0.323238 0.696000
0.733615 0.325845 0.704348
0.824053 0.290990 0.715005
0.850098 0.318034 0.725937
0.009076 0.453088 0.567052
0.111342 0.478057 0.598891
0.268032 0.540062 0.695127
0.546301 0.599493 0.786945
0.816156 0.613047 0.796310
0.910504 0.610699 0.797836
0.935584 0.639316 0.806284
0.011687 0.579225 0.645830
0.106946 0.620204 0.682875
0.284214 0.719171 0.761321
0.562810 0.824117 0.836016
0.857165 0.863269 0.851899
0.966683 0.873589 0.852078
0.989868 0.886257 0.858319
0.005550 0.624746 0.682057
0.028594 0.677367 0.727695
0.094652 0.786846 0.814185
0.514728 0.900313 0.878407
0.864015 0.950008 0.888078
0.976737 0.962995 0.895042
0.999023 0.965431 0.900622
0.000086 0.672020 0.733026
0.001814 0.744183 0.794192
0.026967 0.834466 0.866875
0.535719 0.920707 0.907914
0.857392 0.966877 0.919738
0.978483 0.983531 0.925173
0.998540 0.984991 0.934424
0.001788 0.178961 0.355220
0.008845 0.164939 0.399361
0.180863 0.048051 0.536554
0.405609 0.048627 0.571156
0.570485 0.068953 0.592482
0.650114 0.074270 0.598450
0.677150 0.059214 0.611979
0.002374 0.239376 0.434300
0.003057 0.235228 0.479161
0.177199 0.117144 0.658319
0.470404 0.120093 0.697953
0.658708 0.131133 0.705578
0.741150 0.126965 0.711917
0.777253 0.094048 0.735816
0.000017 0.332655 0.521036
0.002407 0.338143 0.560372
0.142101 0.314139 0.729473
0.512922 0.323807 0.794817
0.739052 0.314840 0.811327
0.827634 0.298557 0.814198
0.855220 0.334027 0.826468
0.002750 0.482343 0.627896
0.048474 0.500950 0.659785
0.122737 0.562259 0.780343
0.524975 0.612656 0.880855
0.804830 0.626675 0.895766
0.905687 0.624094 0.897231
0.934292 0.655329 0.906915
0.003432 0.601172 0.697382
0.097174 0.639411 0.734934
0.206245 0.740411 0.835190
0.518488 0.839304 0.926154
0.845641 0.878277 0.948548
0.959160 0.887617 0.952192
0.986363 0.901843 0.955924
0.020930 0.643607 0.723356
0.025132 0.695245 0.772347
0.101530 0.801152 0.867349
0.490494 0.910527 0.948521
0.849508 0.961855 0.967457
0.975180 0.976980 0.973320
0.996078 0.975622 0.973295
0.001667 0.686438 0.766132
0.044332 0.748072 0.821794
0.044488 0.837993 0.900003
0.521531 0.929136 0.959810
0.848798 0.976842 0.975692
0.967157 0.990924 0.978950
0.996949 0.993949 0.979427
0.000000 0.209871 0.404058
0.003081 0.207304 0.454816
0.188267 0.031336 0.633647
0.447802 0.043284 0.662934
0.620506 0.072669 0.668440
0.693192 0.083557 0.673613
0.728835 0.079393 0.699432
0.000000 0.265882 0.472205
0.002856 0.267974 0.518284
0.174403 0.152255 0.710410
0.492340 0.152404 0.761570
0.691196 0.127559 0.775052
0.776697 0.128002 0.780953
0.800724 0.136125 0.790429
0.000000 0.347118 0.536982
0.002878 0.357446 0.587971
0.091375 0.349719 0.748437
0.496740 0.354381 0.830495
0.746603 0.351893 0.851879
0.838842 0.341881 0.856273
0.865882 0.373443 0.867358
0.000084 0.487672 0.633701
0.023143 0.515612 0.679668
0.025827 0.575513 0.814836
0.509761 0.623643 0.906810
0.804022 0.640128 0.926239
0.906066 0.642789 0.931647
0.933095 0.666145 0.936331
0.003641 0.607686 0.711409
0.023532 0.648344 0.753209
0.043981 0.747754 0.859754
0.470571 0.843835 0.952870
0.837496 0.882364 0.972966
0.955613 0.890391 0.979915
0.981958 0.897560 0.980911
0.015075 0.648893 0.737600
0.045785 0.702529 0.787092
0.048773 0.807871 0.884141
0.459484 0.913774 0.967088
0.834240 0.961103 0.984374
0.965815 0.977015 0.989993
0.994722 0.975314 0.988386
0.009643 0.689277 0.772548
0.007593 0.757764 0.836213
0.040563 0.843081 0.913693
0.502038 0.930014 0.971848
0.833617 0.977368 0.988454
0.964525 0.994080 0.996291
0.993848 0.994703 0.997616
