filter-app-android/app/src/main/assets/luts/print/fuji_3513_constlmap.cube
# Created by: G'MIC (https://gmic.eu)
TITLE "fuji_3513_constlmap"
# LUT size
LUT_3D_SIZE 5
# Data domain
DOMAIN_MIN 0.0 0.0 0.0
DOMAIN_MAX 1.0 1.0 1.0
# LUT data points
0.011328 0.017837 0.021433
0.079775 0.035965 0.020013
0.300172 0.069550 0.006910
0.469178 0.090667 0.012383
0.531559 0.102480 0.018766
0.016047 0.095231 0.055272
0.096407 0.124720 0.038482
0.396596 0.175961 0.009475
0.589750 0.199748 0.003761
0.653794 0.223539 0.005511
0.004599 0.263276 0.125744
0.046723 0.321171 0.073313
0.500604 0.430077 0.007502
0.734532 0.468462 0.007419
0.792301 0.494944 0.016578
0.010133 0.413546 0.183078
0.060449 0.506961 0.105860
0.585623 0.666481 0.004733
0.849977 0.729977 0.056675
0.923114 0.753319 0.064697
0.015499 0.499325 0.235799
0.133551 0.625231 0.074475
0.648029 0.751762 0.011915
0.918048 0.815513 0.082422
0.973511 0.827358 0.122814
0.009953 0.040812 0.077294
0.091465 0.039515 0.094862
0.349719 0.048130 0.102369
0.546961 0.036627 0.109038
0.603577 0.029736 0.111274
0.013345 0.118728 0.125038
0.122390 0.141591 0.136126
0.441438 0.193032 0.148340
0.694399 0.160021 0.107570
0.769908 0.139252 0.084931
0.016472 0.313205 0.221700
0.166344 0.372348 0.229759
0.547243 0.485702 0.223643
0.837205 0.512485 0.149863
0.914335 0.539680 0.074578
0.026375 0.468809 0.308495
0.084896 0.567890 0.299367
0.615100 0.750165 0.200410
0.930900 0.806919 0.241601
0.994956 0.822641 0.183563
0.010026 0.563328 0.426551
0.016909 0.689667 0.423611
0.643286 0.832103 0.363109
0.970276 0.888064 0.334727
0.999051 0.888854 0.442163
0.006670 0.108793 0.222348
0.080102 0.052385 0.306781
0.381212 0.059660 0.342253
0.589082 0.036758 0.361824
0.643225 0.041801 0.370860
0.012552 0.203166 0.315444
0.113392 0.204873 0.370562
0.473751 0.229863 0.453249
0.741877 0.158962 0.469894
0.794975 0.167868 0.483760
0.019861 0.400830 0.448897
0.207759 0.464025 0.499397
0.573500 0.565912 0.581756
0.878095 0.585064 0.575716
0.939060 0.611609 0.586616
0.003683 0.565315 0.554677
0.121193 0.655109 0.609034
0.569520 0.843348 0.651425
0.942114 0.891853 0.674822
0.999955 0.904315 0.681539
0.001732 0.646245 0.645804
0.001843 0.754801 0.720615
0.577467 0.897295 0.764559
0.949763 0.952118 0.755712
0.999903 0.957692 0.796923
0.005345 0.168531 0.333356
0.073606 0.071466 0.466849
0.399284 0.064970 0.533741
0.609901 0.075339 0.554160
0.668356 0.045008 0.576083
0.002764 0.267988 0.455934
0.050410 0.245760 0.554153
0.489743 0.202454 0.707916
0.745576 0.198074 0.716709
0.811312 0.178637 0.741701
0.004012 0.473011 0.607494
0.154644 0.518619 0.676407
0.530492 0.607142 0.844896
0.874013 0.618587 0.856147
0.935101 0.645112 0.871200
0.010663 0.621796 0.695765
0.138023 0.712126 0.778066
0.524021 0.881156 0.908752
0.935116 0.938942 0.931544
0.995108 0.947383 0.935858
0.000906 0.681623 0.753012
0.016166 0.784963 0.844656
0.529486 0.926927 0.941188
0.932654 0.982937 0.956703
0.996600 0.990623 0.960658
0.000000 0.209871 0.404058
0.051175 0.112054 0.555844
0.447802 0.043284 0.662934
0.665829 0.078806 0.667901
0.728835 0.079393 0.699432
0.000000 0.293899 0.497063
0.004940 0.289244 0.619663
0.500240 0.249249 0.794479
0.777583 0.220328 0.817721
0.833117 0.239177 0.829427
0.000084 0.487672 0.633701
0.018310 0.541776 0.731526
0.509761 0.623643 0.906810
0.869413 0.642351 0.930480
0.933095 0.666145 0.936331
0.008337 0.637107 0.729847
0.070834 0.724787 0.812918
0.459767 0.890242 0.961516
0.926583 0.946309 0.986343
0.990083 0.947340 0.984500
0.009643 0.689277 0.772548
0.019654 0.796402 0.871281
0.502038 0.930014 0.971848
0.916613 0.988856 0.993707
0.993848 0.994703 0.997616
