filter-app-android/app/src/main/assets/luts/negative_color/agfa_vista_200.cube
# Created by: G'MIC (https://gmic.eu)
TITLE "agfa_vista_200"
# LUT size
LUT_3D_SIZE 5
# Data domain
DOMAIN_MIN 0.0 0.0 0.0
DOMAIN_MAX 1.0 1.0 1.0
# LUT data points
0.017170 0.016876 0.013847
0.171904 0.015496 0.006016
0.485905 0.013707 0.001455
0.773874 0.011744 0.000042
0.968980 0.001893 0.000000
0.077431 0.233323 0.071234
0.221417 0.210817 0.049511
0.529950 0.176010 0.017936
0.797802 0.119993 0.004018
0.980654 0.039763 0.000000
0.015882 0.570357 0.130300
0.281202 0.562754 0.118929
0.610584 0.543604 0.089791
0.858977 0.512296 0.059197
0.996759 0.445254 0.029882
0.320437 0.805787 0.201355
0.469095 0.803850 0.184631
0.694420 0.797669 0.159539
0.900459 0.785956 0.119063
0.999979 0.765280 0.088007
0.605286 0.964678 0.295439
0.667982 0.963131 0.282366
0.795495 0.961442 0.271246
0.952849 0.957485 0.248727
0.999563 0.952435 0.206754
0.005829 0.011236 0.119865
0.138395 0.007557 0.102380
0.451247 0.004593 0.063050
0.746920 0.000032 0.021184
0.960020 0.000000 0.008635
0.052386 0.205203 0.198211
0.181474 0.183536 0.182514
0.499053 0.149508 0.144233
0.765720 0.093259 0.099337
0.966071 0.021921 0.050522
0.005562 0.552982 0.299444
0.218491 0.555857 0.289153
0.572171 0.535060 0.254759
0.825723 0.500799 0.220025
0.993260 0.432008 0.186156
0.216765 0.806926 0.396408
0.407107 0.805530 0.391478
0.656947 0.790293 0.363849
0.863507 0.776176 0.339567
0.991463 0.757487 0.311486
0.540348 0.966255 0.475916
0.615850 0.967111 0.468689
0.752825 0.965312 0.457462
0.918212 0.961545 0.438176
0.997796 0.956625 0.422417
0.000575 0.006117 0.342239
0.076158 0.001156 0.329381
0.409150 0.003492 0.298206
0.704164 0.002173 0.256246
0.920294 0.000000 0.224428
0.016267 0.164470 0.439722
0.118105 0.135973 0.427931
0.438107 0.101929 0.391708
0.713857 0.055567 0.351852
0.910302 0.016128 0.316209
0.000218 0.538430 0.557386
0.093322 0.532809 0.544715
0.511464 0.506287 0.514044
0.771729 0.470018 0.485640
0.970137 0.382628 0.448598
0.035793 0.806857 0.640394
0.293648 0.800783 0.628887
0.586421 0.795080 0.608788
0.808518 0.776618 0.583500
0.988831 0.752091 0.565568
0.465920 0.974261 0.686207
0.540888 0.968909 0.679730
0.695855 0.967889 0.667796
0.869523 0.969140 0.652812
0.996212 0.961764 0.637787
0.000000 0.001659 0.579695
0.020351 0.000005 0.575447
0.344206 0.000014 0.536878
0.653315 0.000000 0.507687
0.866773 0.000000 0.476808
0.000015 0.074900 0.652753
0.046000 0.062961 0.641937
0.374553 0.036555 0.603813
0.660233 0.017166 0.565724
0.867028 0.004340 0.534823
0.000000 0.470824 0.746354
0.026681 0.472723 0.737137
0.457169 0.439593 0.703329
0.722019 0.387355 0.668580
0.924602 0.282234 0.632961
0.004186 0.785586 0.815214
0.154604 0.788463 0.807913
0.525411 0.775247 0.784584
0.765660 0.756054 0.761434
0.964990 0.728839 0.739305
0.370644 0.978378 0.862429
0.457672 0.974556 0.854844
0.635612 0.972139 0.843566
0.825265 0.970492 0.829381
0.985124 0.965489 0.814269
0.000000 0.000000 0.770106
0.004198 0.000000 0.754507
0.286487 0.000000 0.716203
0.609699 0.000000 0.682362
0.832602 0.000000 0.653680
0.000000 0.010019 0.809696
0.002264 0.004505 0.797713
0.297868 0.003894 0.762781
0.609412 0.000243 0.720796
0.832083 0.000047 0.698762
0.000000 0.327479 0.894435
0.036430 0.312892 0.879435
0.397318 0.272998 0.840630
0.667209 0.199727 0.803514
0.864653 0.082633 0.763431
0.000000 0.746193 0.964413
0.015842 0.741716 0.958723
0.459662 0.723313 0.932696
0.722594 0.701467 0.908906
0.934648 0.658402 0.880032
0.148392 0.976579 0.997949
0.332646 0.973769 0.991753
0.558113 0.968673 0.986625
0.773226 0.963656 0.972583
0.961672 0.956751 0.959910
