filter-app-android/app/src/main/assets/luts/negative_color/agfa_vista_200.cube
# Created by: G'MIC (https://gmic.eu)
TITLE "agfa_vista_200"
# LUT size
LUT_3D_SIZE 13
# Data domain
DOMAIN_MIN 0.0 0.0 0.0
DOMAIN_MAX 1.0 1.0 1.0
# LUT data points
0.017170 0.016876 0.013847
0.043856 0.013780 0.009238
0.095152 0.013369 0.008464
0.171904 0.015496 0.006016
0.264761 0.014103 0.001907
0.367854 0.011104 0.000856
0.485905 0.013707 0.001455
0.601504 0.019812 0.001414
0.696433 0.013934 0.001163
0.773874 0.011744 0.000042
0.841572 0.009842 0.000000
0.907986 0.006039 0.000000
0.968980 0.001893 0.000000
0.034100 0.059542 0.027014
0.056615 0.052714 0.021075
0.108570 0.052917 0.018805
0.180357 0.047436 0.015902
0.273766 0.041308 0.009075
0.380818 0.036883 0.002531
0.493771 0.030071 0.001727
0.601768 0.024484 0.000792
0.696458 0.016269 0.000542
0.774047 0.012525 0.000000
0.843868 0.010241 0.000000
0.909896 0.005953 0.000000
0.970359 0.001532 0.000000
0.058186 0.132084 0.044890
0.081676 0.126419 0.038327
0.125969 0.122346 0.035451
0.200349 0.119860 0.035430
0.295371 0.110795 0.024551
0.398737 0.097542 0.010926
0.509677 0.084375 0.006002
0.612799 0.067411 0.002347
0.704291 0.053004 0.000479
0.781099 0.040278 0.000086
0.851425 0.026557 0.000000
0.917632 0.014016 0.000000
0.975673 0.005947 0.000000
0.077431 0.233323 0.071234
0.099580 0.227544 0.064886
0.141814 0.217998 0.057166
0.221417 0.210817 0.049511
0.317712 0.204380 0.040744
0.421521 0.192120 0.029009
0.529950 0.176010 0.017936
0.632296 0.161857 0.009578
0.722441 0.140711 0.004266
0.797802 0.119993 0.004018
0.865746 0.098819 0.002226
0.930978 0.071690 0.000615
0.980654 0.039763 0.000000
0.041895 0.345016 0.095621
0.061840 0.341575 0.091983
0.128836 0.332677 0.085624
0.237580 0.323200 0.074108
0.341526 0.318148 0.064944
0.448687 0.308341 0.055789
0.556214 0.297528 0.042159
0.655621 0.285878 0.028928
0.743823 0.263314 0.018578
0.819720 0.242901 0.012390
0.885889 0.210385 0.007518
0.950280 0.174584 0.004265
0.991979 0.133465 0.002093
0.015552 0.462366 0.116351
0.046011 0.459765 0.114374
0.135398 0.453201 0.109045
0.254346 0.443638 0.098931
0.368326 0.437159 0.088895
0.477621 0.428534 0.079780
0.582186 0.421280 0.067349
0.677371 0.412237 0.055757
0.763521 0.394428 0.044710
0.841534 0.377234 0.032409
0.909313 0.348482 0.023808
0.968689 0.317392 0.019416
0.994367 0.285477 0.014358
0.015882 0.570357 0.130300
0.053311 0.570191 0.128512
0.157720 0.568003 0.125036
0.281202 0.562754 0.118929
0.398397 0.556888 0.110271
0.508146 0.549677 0.101016
0.610584 0.543604 0.089791
0.703073 0.535367 0.078805
0.784042 0.523732 0.068979
0.858977 0.512296 0.059197
0.929093 0.491945 0.048226
0.983866 0.472735 0.039131
0.996759 0.445254 0.029882
0.072958 0.661128 0.142448
0.135238 0.657676 0.142174
0.230498 0.657888 0.136828
0.333252 0.657493 0.130018
0.437097 0.654974 0.124459
0.542554 0.648218 0.116650
0.638169 0.639403 0.107044
0.723094 0.631961 0.099478
0.800138 0.629838 0.093100
0.872622 0.621249 0.083213
0.940040 0.602960 0.072468
0.985904 0.587046 0.063146
0.998338 0.574274 0.054055
0.198075 0.737898 0.166744
0.251003 0.733649 0.166007
0.314191 0.731342 0.162746
0.397724 0.733142 0.153110
0.489942 0.732425 0.144591
0.583975 0.730011 0.132663
0.666645 0.724488 0.123472
0.744920 0.718926 0.115464
0.817656 0.715515 0.108821
0.886942 0.709466 0.099633
0.951181 0.697823 0.092862
0.987650 0.685717 0.084562
0.999112 0.679144 0.077513
0.320437 0.805787 0.201355
0.347607 0.803701 0.198436
0.404363 0.800937 0.193177
0.469095 0.803850 0.184631
0.547899 0.801452 0.178341
0.624380 0.800286 0.169532
0.694420 0.797669 0.159539
0.767073 0.793733 0.145892
0.835178 0.789728 0.131795
0.900459 0.785956 0.119063
0.963762 0.780337 0.107289
0.995103 0.772832 0.095526
0.999979 0.765280 0.088007
0.432270 0.868147 0.237782
0.447146 0.870552 0.232693
0.489187 0.866417 0.227691
0.540077 0.865196 0.221613
0.598458 0.866037 0.216660
0.660486 0.863894 0.210978
0.724558 0.863575 0.203470
0.789323 0.862685 0.191871
0.853137 0.856726 0.179580
0.913944 0.850603 0.167719
0.974122 0.848518 0.151897
0.997050 0.843829 0.133549
0.999846 0.838848 0.113805
0.525616 0.920752 0.270290
0.534135 0.921447 0.264076
0.563256 0.918881 0.260240
0.606325 0.917380 0.254837
0.649735 0.917880 0.249370
0.703167 0.917892 0.246404
0.761883 0.918724 0.240611
0.818588 0.918914 0.232216
0.873825 0.914342 0.224934
0.931342 0.910210 0.215457
0.984717 0.908647 0.202001
0.997584 0.904793 0.186312
0.999584 0.899714 0.165295
0.605286 0.964678 0.295439
0.616276 0.965151 0.289557
0.636462 0.964393 0.286508
0.667982 0.963131 0.282366
0.706275 0.963072 0.277912
0.749195 0.960482 0.275220
0.795495 0.961442 0.271246
0.848778 0.963405 0.264188
0.900815 0.959325 0.256483
0.952849 0.957485 0.248727
0.991201 0.952884 0.237271
0.996591 0.949492 0.222419
0.999563 0.952435 0.206754
0.013573 0.017556 0.035622
0.038140 0.013370 0.028722
0.086434 0.010076 0.025374
0.162093 0.011566 0.021272
0.253200 0.010369 0.013734
0.357490 0.008170 0.005601
0.475947 0.008680 0.005112
0.589716 0.009326 0.003931
0.683407 0.009304 0.004068
0.763502 0.008611 0.003606
0.835102 0.006564 0.003805
0.903728 0.003770 0.002392
0.969689 0.000669 0.000854
0.024773 0.053309 0.050481
0.052980 0.049915 0.046912
0.100838 0.045654 0.041386
0.172744 0.039667 0.034584
0.265055 0.035030 0.025173
0.372736 0.032004 0.014967
0.485247 0.025252 0.010019
0.594733 0.018761 0.005425
0.687855 0.014981 0.004060
0.766606 0.012637 0.001587
0.837747 0.010216 0.003105
0.907237 0.004652 0.002153
0.969038 0.000758 0.001119
0.050242 0.122169 0.071314
0.074498 0.118732 0.067360
0.118424 0.112065 0.061083
0.190770 0.106527 0.053851
0.285806 0.100600 0.042331
0.391618 0.090060 0.028961
0.502836 0.078445 0.021253
0.608411 0.063296 0.011418
0.697357 0.050195 0.005760
0.773745 0.036374 0.002453
0.845507 0.024386 0.000951
0.913638 0.012229 0.000779
0.974886 0.002612 0.000388
0.071273 0.223348 0.099250
0.093433 0.219173 0.095253
0.135954 0.209380 0.088421
0.210392 0.203814 0.080056
0.310346 0.199746 0.068895
0.414453 0.185847 0.055997
0.521111 0.168265 0.044875
0.625912 0.154792 0.028905
0.716167 0.135318 0.017142
0.790228 0.114489 0.012002
0.859430 0.094474 0.006340
0.925829 0.061729 0.002090
0.980191 0.031868 0.000018
0.039195 0.337708 0.125505
0.060156 0.335212 0.121152
0.118749 0.329039 0.114862
0.224750 0.320644 0.106232
0.333918 0.315402 0.096790
0.441482 0.304405 0.087558
0.546491 0.290023 0.075160
0.649706 0.278364 0.056734
0.739065 0.258841 0.041818
0.811962 0.233018 0.029692
0.880722 0.204706 0.018251
0.945762 0.170538 0.009470
0.990373 0.128149 0.005011
0.004680 0.457420 0.147061
0.036160 0.456218 0.141935
0.119872 0.449949 0.136464
0.241660 0.442402 0.128624
0.361538 0.438510 0.120615
0.470737 0.430828 0.113536
0.574466 0.418088 0.100375
0.673532 0.408758 0.085047
0.760581 0.393714 0.072496
0.834634 0.372616 0.059827
0.904115 0.349346 0.046227
0.966153 0.315745 0.034165
0.994489 0.276868 0.024417
0.010591 0.568114 0.163308
0.042028 0.569100 0.159202
0.141126 0.566761 0.155503
0.269462 0.561920 0.149857
0.390673 0.557824 0.140481
0.501127 0.550493 0.133431
0.605014 0.542812 0.120868
0.695761 0.533917 0.111601
0.776749 0.522701 0.100808
0.852425 0.511018 0.090001
0.921310 0.489459 0.078005
0.982000 0.469654 0.068689
0.998072 0.439236 0.056006
0.052133 0.661828 0.182504
0.115420 0.659268 0.180820
0.209349 0.658002 0.179772
0.318581 0.657340 0.175142
0.431546 0.654107 0.165251
0.536363 0.648625 0.151675
0.630597 0.641079 0.142331
0.714391 0.633811 0.135235
0.792402 0.628560 0.125054
0.865683 0.620164 0.113765
0.933107 0.605071 0.102946
0.986220 0.589433 0.093909
0.998308 0.574550 0.085342
0.168938 0.738550 0.213164
0.223832 0.734930 0.212506
0.295537 0.733261 0.210948
0.386645 0.733076 0.205759
0.486478 0.731070 0.195349
0.578955 0.728531 0.180831
0.658105 0.725089 0.170999
0.737268 0.721018 0.160110
0.810667 0.716002 0.147843
0.880160 0.708351 0.135389
0.946042 0.700591 0.125171
0.991878 0.691125 0.115266
0.998334 0.675863 0.107634
0.298824 0.805949 0.246713
0.330675 0.804874 0.244174
0.388562 0.802578 0.241450
0.456855 0.803548 0.236734
0.539949 0.800185 0.229359
0.617376 0.798069 0.221385
0.686353 0.796346 0.211577
0.759814 0.792918 0.200586
0.828872 0.788490 0.187977
0.893041 0.784476 0.176710
0.955858 0.780377 0.162884
0.993580 0.772441 0.147254
0.999268 0.763715 0.132392
0.412889 0.870349 0.280026
0.432572 0.870658 0.277238
0.479742 0.866384 0.274891
0.529514 0.864134 0.271558
0.587048 0.864928 0.268098
0.651814 0.863728 0.260437
0.716060 0.863630 0.251272
0.780443 0.862469 0.241935
0.844119 0.858134 0.233671
0.905116 0.854596 0.226998
0.966577 0.850868 0.211445
0.995211 0.844903 0.194805
0.999311 0.840478 0.178001
0.509844 0.923820 0.309754
0.522073 0.923849 0.307421
0.557781 0.919689 0.305741
0.597688 0.916994 0.302836
0.639666 0.917257 0.298355
0.692869 0.917869 0.294055
0.752203 0.918756 0.286293
0.809520 0.918829 0.278080
0.866069 0.914613 0.272481
0.923447 0.910854 0.266351
0.976933 0.907408 0.251949
0.995185 0.904456 0.238793
0.999043 0.900729 0.224996
0.592171 0.967718 0.332891
0.602633 0.967055 0.332665
0.628653 0.966317 0.329789
0.657771 0.963538 0.326574
0.695576 0.963579 0.322824
0.736815 0.962544 0.322417
0.785990 0.962809 0.316616
0.840853 0.963523 0.308112
0.892872 0.957841 0.301070
0.941722 0.952696 0.297512
0.982913 0.947937 0.288961
0.995162 0.945982 0.273402
0.998883 0.952146 0.260527
0.007932 0.013224 0.068126
0.031300 0.010296 0.064677
0.078201 0.008712 0.059596
0.148445 0.007821 0.050575
0.238402 0.005834 0.041525
0.346747 0.005172 0.028901
0.463257 0.003778 0.019243
0.575984 0.002530 0.011447
0.673009 0.003877 0.008152
0.754585 0.003526 0.004122
0.827481 0.002188 0.005963
0.897831 0.000463 0.005724
0.964867 0.000000 0.003117
0.018575 0.047737 0.090242
0.043487 0.044335 0.085322
0.092090 0.040637 0.080487
0.162369 0.035106 0.072762
0.253841 0.030746 0.062221
0.359694 0.025926 0.046406
0.472393 0.020168 0.033708
0.583837 0.011923 0.019001
0.678989 0.009209 0.013723
0.758676 0.007292 0.006774
0.830967 0.004486 0.005027
0.900708 0.001398 0.007156
0.961647 0.000026 0.005230
0.040859 0.118759 0.115646
0.062601 0.114386 0.110374
0.107288 0.105156 0.102995
0.181141 0.099494 0.095639
0.277297 0.093847 0.086978
0.381041 0.080824 0.067844
0.491094 0.069438 0.054533
0.598770 0.055352 0.036848
0.688367 0.043449 0.024931
0.767232 0.029731 0.014731
0.838619 0.018557 0.007957
0.906216 0.009197 0.006045
0.966865 0.002317 0.004753
0.062224 0.216864 0.141909
0.082325 0.214010 0.138248
0.126525 0.202787 0.131896
0.199009 0.193144 0.122910
0.298919 0.184739 0.113525
0.404558 0.172701 0.097371
0.511118 0.158226 0.084019
0.617002 0.142670 0.064559
0.705393 0.123482 0.049515
0.782022 0.102157 0.035852
0.851684 0.078677 0.023380
0.918230 0.051254 0.013493
0.976576 0.025805 0.006411
0.038648 0.329735 0.168444
0.053781 0.328222 0.164165
0.104851 0.324628 0.160774
0.208035 0.315127 0.154576
0.318935 0.305495 0.144940
0.428836 0.296374 0.130675
0.534746 0.281153 0.116362
0.639133 0.264933 0.099639
0.725333 0.248227 0.089012
0.800316 0.224167 0.073537
0.871081 0.196409 0.057748
0.936953 0.161069 0.044099
0.987731 0.114191 0.024900
0.005734 0.449338 0.196533
0.026260 0.451338 0.191224
0.102658 0.448281 0.186509
0.224433 0.441294 0.182978
0.344172 0.436264 0.174004
0.457436 0.428345 0.160517
0.564692 0.415311 0.147457
0.661962 0.401444 0.136647
0.747072 0.386604 0.126694
0.821728 0.365283 0.111418
0.893510 0.342672 0.096975
0.957541 0.309832 0.083063
0.994992 0.270607 0.065482
0.005585 0.560969 0.223758
0.027306 0.564881 0.219834
0.116155 0.563982 0.215822
0.249308 0.557964 0.211923
0.372912 0.554286 0.203402
0.484791 0.549879 0.188252
0.590376 0.539361 0.176755
0.679645 0.526363 0.171888
0.761490 0.516595 0.160002
0.839395 0.505659 0.142962
0.908587 0.482523 0.131863
0.971336 0.457810 0.122222
0.996726 0.436684 0.108998
0.019654 0.661414 0.250979
0.074165 0.660325 0.249065
0.180612 0.658185 0.249207
0.295933 0.654769 0.247211
0.412127 0.649244 0.238942
0.519742 0.643811 0.223548
0.616572 0.639201 0.208698
0.699264 0.631318 0.200732
0.777936 0.624930 0.189727
0.852598 0.617933 0.172726
0.920759 0.604343 0.163810
0.981691 0.590788 0.153447
0.996176 0.571745 0.145583
0.126203 0.739178 0.283119
0.184341 0.736705 0.280817
0.269110 0.735800 0.280053
0.364042 0.733258 0.280257
0.466668 0.729435 0.270601
0.560008 0.724671 0.256780
0.644837 0.720064 0.246351
0.723889 0.715838 0.236364
0.796829 0.709042 0.223606
0.866518 0.703118 0.212075
0.932955 0.695850 0.201156
0.984436 0.687292 0.189173
0.995332 0.676381 0.177322
0.259262 0.806349 0.318089
0.298942 0.804734 0.315500
0.360006 0.803789 0.314482
0.432634 0.803162 0.313713
0.522104 0.799020 0.301170
0.603077 0.794473 0.289902
0.674506 0.792477 0.282382
0.746466 0.788558 0.274107
0.813821 0.783639 0.263936
0.879357 0.779188 0.255374
0.941942 0.773522 0.245898
0.986908 0.766988 0.232413
0.995223 0.761533 0.216519
0.373806 0.868394 0.348405
0.404716 0.871180 0.348382
0.454941 0.868654 0.345760
0.508515 0.867232 0.340285
0.572525 0.866747 0.331225
0.638684 0.862860 0.325025
0.701983 0.862181 0.318886
0.765710 0.860141 0.313538
0.829556 0.856805 0.305987
0.893062 0.855508 0.298043
0.953354 0.850805 0.288612
0.993001 0.845140 0.275937
0.996248 0.840654 0.265549
0.479036 0.922640 0.376125
0.500274 0.923735 0.373427
0.539204 0.920823 0.370668
0.580709 0.919136 0.366372
0.624679 0.919264 0.360627
0.677787 0.918284 0.356332
0.736786 0.918968 0.351419
0.793365 0.919261 0.347228
0.853021 0.915922 0.339685
0.911855 0.913836 0.332496
0.965043 0.910933 0.325885
0.995112 0.907818 0.315187
0.997000 0.903771 0.306908
0.566012 0.965339 0.399709
0.585685 0.967421 0.395847
0.612393 0.965930 0.393181
0.640387 0.965305 0.390276
0.679161 0.966331 0.386884
0.723038 0.966530 0.384189
0.773531 0.965466 0.379542
0.825656 0.963588 0.375044
0.879739 0.958694 0.366216
0.930117 0.955395 0.361260
0.978063 0.955741 0.357234
0.995476 0.953695 0.347391
0.998254 0.954425 0.336565
0.005829 0.011236 0.119865
0.023633 0.008453 0.114640
0.068320 0.008480 0.111692
0.138395 0.007557 0.102380
0.229001 0.005225 0.088442
0.338020 0.005582 0.075544
0.451247 0.004593 0.063050
0.565637 0.002524 0.046830
0.665019 0.000243 0.031072
0.746920 0.000032 0.021184
0.820606 0.000000 0.017462
0.890307 0.000000 0.015671
0.960020 0.000000 0.008635
0.012279 0.042114 0.141646
0.032674 0.038298 0.138448
0.078686 0.037077 0.136073
0.149268 0.032063 0.129179
0.241591 0.026215 0.115019
0.347789 0.022997 0.102440
0.461036 0.017217 0.087103
0.573081 0.010970 0.067654
0.669011 0.005403 0.052647
0.748120 0.002874 0.039766
0.821941 0.000268 0.028287
0.891326 0.000000 0.023775
0.956394 0.000000 0.014006
0.030524 0.108198 0.167406
0.051773 0.106899 0.165785
0.094119 0.098473 0.161053
0.166653 0.095035 0.155672
0.263565 0.085856 0.144017
0.367903 0.072248 0.127627
0.478803 0.061441 0.111098
0.585784 0.047612 0.091763
0.673810 0.039637 0.081297
0.753339 0.028216 0.066448
0.827376 0.015574 0.049785
0.895917 0.004801 0.037542
0.957431 0.000884 0.028223
0.052386 0.205203 0.198211
0.073325 0.203747 0.196501
0.114239 0.193367 0.191580
0.181474 0.183536 0.182514
0.284136 0.174512 0.172935
0.390974 0.163934 0.160505
0.499053 0.149508 0.144233
0.603265 0.130605 0.126648
0.687961 0.111581 0.114767
0.765720 0.093259 0.099337
0.839369 0.069262 0.081762
0.906231 0.044015 0.067027
0.966071 0.021921 0.050522
0.037452 0.320440 0.232239
0.046929 0.321245 0.230785
0.088454 0.316586 0.228109
0.186700 0.308386 0.219701
0.303295 0.298067 0.207487
0.413126 0.288888 0.196455
0.520314 0.275119 0.182332
0.623269 0.253615 0.168038
0.708743 0.233209 0.156225
0.786164 0.209248 0.140173
0.857874 0.182875 0.123608
0.922982 0.147088 0.108308
0.976701 0.103299 0.087624
0.004926 0.440312 0.266448
0.012003 0.444936 0.264129
0.074898 0.443340 0.260192
0.197419 0.438901 0.252710
0.324520 0.431759 0.245004
0.438348 0.422973 0.233627
0.546803 0.408911 0.217681
0.646299 0.391803 0.207835
0.732122 0.376578 0.198016
0.808563 0.356700 0.182346
0.879958 0.333712 0.166569
0.944102 0.299775 0.153370
0.987897 0.260175 0.137230
0.005562 0.552982 0.299444
0.010871 0.559965 0.298465
0.080764 0.561435 0.293983
0.218491 0.555857 0.289153
0.345976 0.548291 0.281046
0.462713 0.541668 0.269760
0.572171 0.535060 0.254759
0.667702 0.524275 0.244934
0.750383 0.512936 0.234206
0.825723 0.500799 0.220025
0.895319 0.479765 0.210037
0.960264 0.455340 0.199565
0.993260 0.432008 0.186156
0.009924 0.653602 0.331682
0.032096 0.657393 0.330814
0.133857 0.656881 0.328798
0.263128 0.653339 0.326497
0.379718 0.647155 0.318465
0.495639 0.641881 0.304978
0.597848 0.636436 0.291367
0.685382 0.629821 0.281829
0.765497 0.622855 0.271348
0.837239 0.611957 0.259419
0.906283 0.598383 0.249352
0.971502 0.587837 0.238595
0.995210 0.571178 0.229332
0.078991 0.737173 0.363291
0.131792 0.736977 0.362973
0.229214 0.737055 0.362028
0.335805 0.733724 0.360454
0.438838 0.728232 0.351192
0.536672 0.722453 0.338854
0.627015 0.718374 0.328583
0.707744 0.714100 0.319023
0.780769 0.704620 0.307846
0.850811 0.700921 0.299338
0.916152 0.690434 0.289078
0.974204 0.680014 0.278838
0.993188 0.674580 0.269464
0.216765 0.806926 0.396408
0.257143 0.806035 0.398127
0.330240 0.807138 0.396705
0.407107 0.805530 0.391478
0.491184 0.800479 0.381742
0.577210 0.793523 0.371198
0.656947 0.790293 0.363849
0.727310 0.785855 0.356993
0.796458 0.780907 0.346907
0.863507 0.776176 0.339567
0.925368 0.769534 0.331685
0.977027 0.760550 0.321903
0.991463 0.757487 0.311486
0.332429 0.866719 0.427993
0.369936 0.871288 0.429936
0.420967 0.869925 0.427494
0.479505 0.866587 0.420678
0.547365 0.865158 0.411601
0.616560 0.863096 0.404954
0.680873 0.861209 0.401274
0.746314 0.857976 0.396104
0.811059 0.854867 0.388414
0.875806 0.852843 0.380444
0.936280 0.847345 0.373898
0.982793 0.840444 0.364144
0.992529 0.837373 0.356666
0.445333 0.922061 0.454440
0.467957 0.922860 0.453712
0.506210 0.921682 0.451225
0.551316 0.920386 0.446232
0.603716 0.920022 0.439217
0.659198 0.919690 0.434790
0.714667 0.920234 0.433405
0.772353 0.920253 0.430342
0.833237 0.916763 0.421510
0.895984 0.913692 0.411963
0.950714 0.911366 0.408944
0.988316 0.908626 0.401756
0.994713 0.904408 0.395497
0.540348 0.966255 0.475916
0.558818 0.967841 0.472865
0.586463 0.967903 0.471358
0.615850 0.967111 0.468689
0.657073 0.967604 0.463866
0.703092 0.966511 0.460233
0.752825 0.965312 0.457462
0.806772 0.966033 0.453115
0.863132 0.962905 0.444580
0.918212 0.961545 0.438176
0.970163 0.961649 0.434800
0.994112 0.959390 0.430303
0.997796 0.956625 0.422417
0.002687 0.010009 0.180793
0.015537 0.008596 0.176444
0.052640 0.007211 0.170684
0.121306 0.005851 0.163308
0.215734 0.004552 0.154570
0.326698 0.004433 0.143179
0.442396 0.003434 0.126687
0.555842 0.001994 0.110669
0.653072 0.001881 0.095905
0.734754 0.001599 0.084460
0.810363 0.000332 0.070245
0.880311 0.000000 0.059185
0.949968 0.000000 0.045410
0.006955 0.037746 0.208687
0.021076 0.033754 0.205050
0.059955 0.030264 0.199747
0.131628 0.025614 0.194261
0.225980 0.021573 0.183238
0.334764 0.018133 0.170684
0.450381 0.013042 0.155901
0.561969 0.007058 0.138364
0.656175 0.005901 0.125499
0.735740 0.005322 0.110631
0.809476 0.003075 0.096788
0.879679 0.000130 0.084035
0.945081 0.000000 0.071572
0.020409 0.094674 0.237150
0.041155 0.092516 0.234940
0.078500 0.087976 0.230207
0.146960 0.081423 0.224568
0.245047 0.072948 0.213298
0.351071 0.062847 0.201777
0.461513 0.052618 0.189001
0.570231 0.039361 0.170063
0.661036 0.029569 0.155824
0.740277 0.021205 0.140713
0.812606 0.011893 0.127079
0.881179 0.003694 0.114885
0.945024 0.002352 0.101762
0.038276 0.191406 0.274320
0.058478 0.188717 0.272073
0.093356 0.182304 0.266545
0.161171 0.177427 0.260015
0.264293 0.164732 0.248019
0.372545 0.153637 0.238977
0.480791 0.139416 0.225513
0.586140 0.118863 0.207358
0.674010 0.099275 0.192487
0.751741 0.080082 0.177962
0.822609 0.060306 0.164440
0.890183 0.035945 0.149819
0.951001 0.017780 0.134509
0.031720 0.310303 0.312071
0.043815 0.310072 0.311575
0.081366 0.304186 0.305770
0.161532 0.300532 0.299428
0.278716 0.291569 0.288622
0.392469 0.278737 0.278113
0.500289 0.263428 0.264777
0.606050 0.241546 0.248696
0.692964 0.221248 0.233227
0.769207 0.196452 0.218001
0.838636 0.166870 0.205050
0.905092 0.131665 0.191007
0.963324 0.091323 0.173849
0.003778 0.432134 0.347222
0.006206 0.436075 0.346660
0.048369 0.434599 0.343523
0.164185 0.432384 0.338438
0.294202 0.425270 0.329033
0.415932 0.414060 0.317252
0.524756 0.400798 0.305002
0.631291 0.385444 0.290987
0.715973 0.366675 0.277992
0.789686 0.344984 0.264682
0.857443 0.318021 0.252821
0.924200 0.285208 0.238742
0.978858 0.241310 0.221029
0.004099 0.550048 0.384273
0.004800 0.554399 0.382416
0.043436 0.556150 0.379485
0.179255 0.553326 0.374738
0.313861 0.543719 0.365646
0.438832 0.535198 0.354357
0.553034 0.531374 0.343336
0.649680 0.519517 0.333684
0.733729 0.506571 0.322088
0.808184 0.494305 0.311271
0.877183 0.476480 0.301901
0.944819 0.451537 0.288004
0.990212 0.420643 0.272489
0.007127 0.646012 0.417520
0.010275 0.651731 0.416293
0.079938 0.654577 0.414211
0.223983 0.652075 0.409335
0.345880 0.645244 0.400552
0.469071 0.637545 0.388974
0.577200 0.631459 0.379427
0.667513 0.625772 0.371078
0.747083 0.619976 0.360237
0.821532 0.611092 0.351440
0.890743 0.595383 0.341798
0.958179 0.582734 0.330832
0.994010 0.567469 0.321884
0.032381 0.732855 0.449345
0.068500 0.735204 0.449004
0.170741 0.735029 0.447401
0.295302 0.732887 0.442817
0.405125 0.726991 0.433988
0.509853 0.721118 0.422734
0.604124 0.718227 0.413490
0.687721 0.713415 0.405034
0.761652 0.704375 0.394855
0.833081 0.701087 0.387197
0.899377 0.688581 0.378107
0.963340 0.677406 0.370778
0.991211 0.672161 0.366367
0.156237 0.807376 0.480596
0.203978 0.807954 0.481121
0.286261 0.807383 0.478733
0.376289 0.804710 0.472709
0.464255 0.800085 0.465335
0.549975 0.796006 0.455616
0.632073 0.794489 0.449704
0.705961 0.789533 0.443921
0.777346 0.784517 0.435586
0.845767 0.777663 0.424214
0.908828 0.769338 0.417725
0.966756 0.758823 0.412371
0.990208 0.755225 0.406252
0.296092 0.870763 0.509416
0.333533 0.872796 0.509725
0.386933 0.871287 0.507448
0.451247 0.868627 0.501812
0.523863 0.866432 0.493779
0.593112 0.866023 0.487585
0.659338 0.864435 0.484875
0.726572 0.860146 0.480258
0.793781 0.856470 0.472533
0.859375 0.853620 0.462471
0.920530 0.847608 0.456391
0.974044 0.838446 0.450303
0.991363 0.834367 0.445114
0.418863 0.926911 0.535515
0.438200 0.925455 0.534228
0.475048 0.923976 0.531880
0.522904 0.923558 0.527750
0.579595 0.922400 0.521002
0.639168 0.922012 0.516079
0.694429 0.921550 0.514183
0.752010 0.921699 0.509481
0.814937 0.917925 0.500888
0.879805 0.914746 0.492269
0.936726 0.913453 0.489583
0.984454 0.911739 0.485972
0.992514 0.905671 0.482793
0.517812 0.970230 0.552758
0.532596 0.970714 0.551438
0.558032 0.970587 0.550356
0.590150 0.968084 0.547785
0.634944 0.970216 0.542979
0.683164 0.966420 0.538067
0.731471 0.964192 0.533094
0.785407 0.966145 0.527857
0.842600 0.966837 0.522701
0.902764 0.965403 0.516649
0.957122 0.964403 0.512623
0.989506 0.962880 0.509515
0.997342 0.959990 0.504479
0.000779 0.006840 0.257304
0.009533 0.007258 0.254023
0.035069 0.004749 0.251093
0.099646 0.003319 0.244635
0.197152 0.001668 0.232697
0.310410 0.001195 0.220413
0.429186 0.003058 0.210208
0.541622 0.002701 0.195072
0.638752 0.002328 0.180440
0.719283 0.002326 0.168514
0.796954 0.001283 0.153882
0.867264 0.000000 0.142343
0.935270 0.000000 0.129290
0.003331 0.028554 0.288263
0.012210 0.028280 0.285600
0.040775 0.023616 0.279706
0.113330 0.021853 0.273656
0.206708 0.018604 0.263525
0.316978 0.012314 0.250408
0.433273 0.009083 0.238086
0.545244 0.007001 0.225378
0.641054 0.006757 0.211078
0.720914 0.008438 0.197150
0.794967 0.005616 0.184928
0.864849 0.000515 0.174165
0.930766 0.000000 0.158905
0.012049 0.085820 0.319878
0.024546 0.081868 0.316762
0.055959 0.075273 0.311541
0.130826 0.072190 0.305118
0.223441 0.062198 0.294650
0.332530 0.054255 0.283085
0.443790 0.042010 0.269794
0.550800 0.034146 0.257128
0.645436 0.024445 0.242033
0.724667 0.017485 0.228427
0.796267 0.009726 0.216614
