filter-app-android/app/src/main/assets/luts/negative_color/agfa_vista_200.cube
# Created by: G'MIC (https://gmic.eu)
TITLE "agfa_vista_200"
# LUT size
LUT_3D_SIZE 7
# Data domain
DOMAIN_MIN 0.0 0.0 0.0
DOMAIN_MAX 1.0 1.0 1.0
# LUT data points
0.017170 0.016876 0.013847
0.095152 0.013369 0.008464
0.264761 0.014103 0.001907
0.485905 0.013707 0.001455
0.696433 0.013934 0.001163
0.841572 0.009842 0.000000
0.968980 0.001893 0.000000
0.058186 0.132084 0.044890
0.125969 0.122346 0.035451
0.295371 0.110795 0.024551
0.509677 0.084375 0.006002
0.704291 0.053004 0.000479
0.851425 0.026557 0.000000
0.975673 0.005947 0.000000
0.041895 0.345016 0.095621
0.128836 0.332677 0.085624
0.341526 0.318148 0.064944
0.556214 0.297528 0.042159
0.743823 0.263314 0.018578
0.885889 0.210385 0.007518
0.991979 0.133465 0.002093
0.015882 0.570357 0.130300
0.157720 0.568003 0.125036
0.398397 0.556888 0.110271
0.610584 0.543604 0.089791
0.784042 0.523732 0.068979
0.929093 0.491945 0.048226
0.996759 0.445254 0.029882
0.198075 0.737898 0.166744
0.314191 0.731342 0.162746
0.489942 0.732425 0.144591
0.666645 0.724488 0.123472
0.817656 0.715515 0.108821
0.951181 0.697823 0.092862
0.999112 0.679144 0.077513
0.432270 0.868147 0.237782
0.489187 0.866417 0.227691
0.598458 0.866037 0.216660
0.724558 0.863575 0.203470
0.853137 0.856726 0.179580
0.974122 0.848518 0.151897
0.999846 0.838848 0.113805
0.605286 0.964678 0.295439
0.636462 0.964393 0.286508
0.706275 0.963072 0.277912
0.795495 0.961442 0.271246
0.900815 0.959325 0.256483
0.991201 0.952884 0.237271
0.999563 0.952435 0.206754
0.007932 0.013224 0.068126
0.078201 0.008712 0.059596
0.238402 0.005834 0.041525
0.463257 0.003778 0.019243
0.673009 0.003877 0.008152
0.827481 0.002188 0.005963
0.964867 0.000000 0.003117
0.040859 0.118759 0.115646
0.107288 0.105156 0.102995
0.277297 0.093847 0.086978
0.491094 0.069438 0.054533
0.688367 0.043449 0.024931
0.838619 0.018557 0.007957
0.966865 0.002317 0.004753
0.038648 0.329735 0.168444
0.104851 0.324628 0.160774
0.318935 0.305495 0.144940
0.534746 0.281153 0.116362
0.725333 0.248227 0.089012
0.871081 0.196409 0.057748
0.987731 0.114191 0.024900
0.005585 0.560969 0.223758
0.116155 0.563982 0.215822
0.372912 0.554286 0.203402
0.590376 0.539361 0.176755
0.761490 0.516595 0.160002
0.908587 0.482523 0.131863
0.996726 0.436684 0.108998
0.126203 0.739178 0.283119
0.269110 0.735800 0.280053
0.466668 0.729435 0.270601
0.644837 0.720064 0.246351
0.796829 0.709042 0.223606
0.932955 0.695850 0.201156
0.995332 0.676381 0.177322
0.373806 0.868394 0.348405
0.454941 0.868654 0.345760
0.572525 0.866747 0.331225
0.701983 0.862181 0.318886
0.829556 0.856805 0.305987
0.953354 0.850805 0.288612
0.996248 0.840654 0.265549
0.566012 0.965339 0.399709
0.612393 0.965930 0.393181
0.679161 0.966331 0.386884
0.773531 0.965466 0.379542
0.879739 0.958694 0.366216
0.978063 0.955741 0.357234
0.998254 0.954425 0.336565
0.002687 0.010009 0.180793
0.052640 0.007211 0.170684
0.215734 0.004552 0.154570
0.442396 0.003434 0.126687
0.653072 0.001881 0.095905
0.810363 0.000332 0.070245
0.949968 0.000000 0.045410
0.020409 0.094674 0.237150
0.078500 0.087976 0.230207
0.245047 0.072948 0.213298
0.461513 0.052618 0.189001
0.661036 0.029569 0.155824
0.812606 0.011893 0.127079
0.945024 0.002352 0.101762
0.031720 0.310303 0.312071
0.081366 0.304186 0.305770
0.278716 0.291569 0.288622
0.500289 0.263428 0.264777
0.692964 0.221248 0.233227
0.838636 0.166870 0.205050
0.963324 0.091323 0.173849
0.004099 0.550048 0.384273
0.043436 0.556150 0.379485
0.313861 0.543719 0.365646
0.553034 0.531374 0.343336
0.733729 0.506571 0.322088
0.877183 0.476480 0.301901
0.990212 0.420643 0.272489
0.032381 0.732855 0.449345
0.170741 0.735029 0.447401
0.405125 0.726991 0.433988
0.604124 0.718227 0.413490
0.761652 0.704375 0.394855
0.899377 0.688581 0.378107
0.991211 0.672161 0.366367
0.296092 0.870763 0.509416
0.386933 0.871287 0.507448
0.523863 0.866432 0.493779
0.659338 0.864435 0.484875
0.793781 0.856470 0.472533
0.920530 0.847608 0.456391
0.991363 0.834367 0.445114
0.517812 0.970230 0.552758
0.558032 0.970587 0.550356
0.634944 0.970216 0.542979
0.731471 0.964192 0.533094
0.842600 0.966837 0.522701
0.957122 0.964403 0.512623
0.997342 0.959990 0.504479
0.000575 0.006117 0.342239
0.019882 0.003638 0.335787
0.175753 0.000917 0.319242
0.409150 0.003492 0.298206
0.623477 0.002197 0.267487
0.779340 0.000951 0.247480
0.920294 0.000000 0.224428
0.004924 0.071389 0.400810
0.033888 0.060752 0.396170
0.199801 0.050818 0.381446
0.421185 0.033169 0.356187
0.624221 0.019768 0.330261
0.778980 0.007784 0.308786
0.904922 0.004125 0.284707
0.019021 0.276109 0.479228
0.063459 0.266257 0.472514
0.232037 0.250682 0.460396
0.458488 0.220906 0.432294
0.652079 0.181584 0.405623
0.802295 0.129843 0.378791
0.927705 0.063582 0.351697
0.000218 0.538430 0.557386
0.007208 0.536867 0.551432
0.248666 0.523303 0.534245
0.511464 0.506287 0.514044
0.695661 0.484913 0.494759
0.843148 0.448109 0.473645
0.970137 0.382628 0.448598
0.005593 0.728333 0.612090
0.050971 0.728357 0.611941
0.337257 0.721661 0.596271
0.559491 0.712008 0.578359
0.721485 0.702015 0.561856
0.866136 0.681802 0.546853
0.984933 0.659217 0.532940
0.190541 0.874994 0.661427
0.313583 0.870790 0.653512
0.470556 0.866234 0.644712
0.617777 0.863834 0.633789
0.757998 0.858100 0.619973
0.890274 0.847535 0.606330
0.993281 0.836516 0.595502
0.465920 0.974261 0.686207
0.506262 0.969862 0.680575
0.590108 0.972614 0.680237
0.695855 0.967889 0.667796
0.810048 0.970581 0.658792
0.925196 0.966508 0.647605
0.996212 0.961764 0.637787
0.000000 0.003630 0.507004
0.006602 0.002510 0.507193
0.126505 0.000064 0.491830
0.357801 0.000000 0.465898
0.579272 0.000000 0.437314
0.746011 0.000000 0.427193
0.877900 0.000000 0.403970
0.000000 0.036848 0.559813
0.009070 0.033214 0.558461
0.145028 0.027585 0.537795
0.376876 0.015419 0.513166
0.582653 0.005026 0.490257
0.742654 0.003687 0.472259
0.878945 0.000606 0.451618
0.002416 0.216631 0.623660
0.037102 0.206905 0.618496
0.190526 0.190254 0.601886
0.420498 0.158438 0.575996
0.614941 0.120807 0.544643
0.762948 0.076093 0.522165
0.890964 0.027735 0.498038
0.000000 0.494743 0.690863
0.004715 0.501136 0.686339
0.193352 0.488626 0.672103
0.474667 0.464595 0.645697
0.658550 0.436696 0.621690
0.810856 0.399945 0.605025
0.940491 0.325676 0.579515
0.002574 0.703337 0.737794
0.009958 0.712042 0.738127
0.268099 0.710864 0.724101
0.517056 0.700735 0.706319
0.688132 0.686669 0.687226
0.837372 0.665478 0.671177
0.968112 0.633609 0.655091
0.073764 0.870771 0.780423
0.209493 0.868938 0.775140
0.409561 0.863341 0.763973
0.573332 0.853996 0.750645
0.722508 0.847339 0.736553
0.861235 0.846275 0.727011
0.977024 0.830879 0.713169
0.408500 0.978040 0.805553
0.444138 0.972018 0.797622
0.544072 0.974003 0.795171
0.657576 0.970292 0.786808
0.780473 0.969169 0.777590
0.897485 0.969888 0.768135
0.990135 0.962174 0.758219
0.000000 0.001720 0.649145
0.006233 0.000085 0.644207
0.074430 0.000000 0.636088
0.328543 0.000000 0.601187
0.549120 0.000068 0.576159
0.716121 0.000000 0.560611
0.860474 0.000000 0.541053
0.000000 0.012598 0.685581
0.003239 0.010287 0.680495
0.086494 0.004142 0.666212
0.339557 0.004152 0.638763
0.549561 0.007055 0.612874
0.717651 0.003164 0.592673
0.853189 0.000000 0.574224
0.000000 0.135529 0.733832
0.011441 0.125416 0.728891
0.138929 0.108499 0.710693
0.378040 0.087848 0.682876
0.577854 0.053749 0.656083
0.728975 0.023350 0.634451
0.860644 0.005534 0.612470
0.000000 0.442526 0.800415
0.003436 0.441795 0.795760
0.151387 0.426617 0.778546
0.437954 0.397310 0.753240
0.630619 0.367236 0.728695
0.778126 0.315785 0.707475
0.906045 0.226189 0.680992
0.000037 0.688436 0.850795
0.004014 0.683966 0.846246
0.194667 0.682773 0.833007
0.482089 0.670649 0.813202
0.660058 0.650473 0.796072
0.813550 0.628266 0.779316
0.947357 0.596171 0.762293
0.011308 0.858721 0.889628
0.084515 0.859712 0.885144
0.345550 0.853466 0.874139
0.533710 0.845209 0.860899
0.692096 0.833419 0.847439
0.837238 0.828920 0.834577
0.957923 0.811803 0.818710
0.319504 0.978150 0.916160
0.381263 0.977137 0.912417
0.490440 0.975616 0.906697
0.616042 0.973272 0.898256
0.743472 0.966857 0.885312
0.870505 0.967065 0.875489
0.976156 0.965659 0.866742
0.000000 0.000000 0.770106
0.003706 0.000000 0.759821
0.031078 0.000000 0.748688
0.286487 0.000000 0.716203
0.516915 0.000000 0.691143
0.692037 0.000000 0.672652
0.832602 0.000000 0.653680
0.000000 0.004805 0.790887
0.000000 0.001527 0.786609
0.035065 0.000014 0.776513
0.287503 0.001440 0.745118
0.513746 0.001246 0.716072
0.690464 0.000000 0.695492
0.833204 0.000000 0.683692
0.000000 0.043785 0.830200
0.001996 0.042798 0.822891
0.075279 0.027324 0.808058
0.322119 0.019915 0.779928
0.533951 0.009433 0.752787
0.695649 0.004945 0.732855
0.834978 0.000603 0.716357
0.000000 0.327479 0.894435
0.007389 0.320296 0.886899
0.125788 0.301528 0.868144
0.397318 0.272998 0.840630
0.589916 0.226593 0.815145
0.736850 0.167225 0.790273
0.864653 0.082633 0.763431
0.000000 0.634336 0.949427
0.001520 0.633924 0.941672
0.110193 0.633401 0.928962
0.438858 0.610901 0.909306
0.626981 0.593847 0.889039
0.787074 0.565452 0.871854
0.923370 0.507723 0.849779
0.001824 0.834795 0.977226
0.008929 0.838251 0.977664
0.240638 0.830606 0.968800
0.484003 0.822306 0.956072
0.658573 0.811611 0.940784
0.808572 0.796694 0.925825
0.942966 0.776690 0.908451
0.148392 0.976579 0.997949
0.258315 0.974692 0.996055
0.408403 0.971019 0.989185
0.558113 0.968673 0.986625
0.700715 0.964507 0.974680
0.839636 0.962766 0.967893
0.961672 0.956751 0.959910
