filter-app-android/app/src/main/assets/luts/negative_new/kodak_portra_400.cube
# Created by: G'MIC (https://gmic.eu)
TITLE "kodak_portra_400"
# LUT size
LUT_3D_SIZE 13
# Data domain
DOMAIN_MIN 0.0 0.0 0.0
DOMAIN_MAX 1.0 1.0 1.0
# LUT data points
0.028550 0.036041 0.035365
0.070555 0.037106 0.034078
0.149381 0.034317 0.033914
0.253789 0.024431 0.028910
0.374139 0.013313 0.021655
0.499196 0.013730 0.011799
0.621358 0.005330 0.008199
0.732879 0.003871 0.003222
0.830536 0.006912 0.001251
0.909650 0.018604 0.000441
0.973303 0.067435 0.001059
0.998636 0.144364 0.002247
1.000000 0.204886 0.001413
0.020456 0.076698 0.044567
0.066509 0.082755 0.041989
0.148045 0.085821 0.033335
0.254707 0.083274 0.022228
0.379027 0.066642 0.012129
0.501778 0.049471 0.006783
0.626170 0.037072 0.002875
0.736869 0.039993 0.000788
0.834473 0.053495 0.002274
0.908144 0.097455 0.001089
0.968452 0.155578 0.000887
0.997703 0.207237 0.001417
1.000000 0.249779 0.001109
0.007599 0.130943 0.052036
0.047151 0.136411 0.049163
0.126158 0.144311 0.036618
0.241162 0.160283 0.019053
0.374483 0.167256 0.010873
0.501689 0.164990 0.008122
0.624062 0.165886 0.002986
0.732977 0.175155 0.000652
0.824328 0.192095 0.001761
0.895178 0.215673 0.001442
0.958538 0.248788 0.001115
0.996509 0.283140 0.000980
0.999470 0.313193 0.000283
0.000808 0.211412 0.060882
0.012274 0.206370 0.067903
0.091248 0.217809 0.057638
0.206377 0.236648 0.029190
0.344259 0.256212 0.012904
0.485158 0.272461 0.008206
0.612486 0.284552 0.004522
0.720065 0.293197 0.002035
0.804546 0.299572 0.001532
0.876747 0.317290 0.001911
0.942961 0.340151 0.001604
0.989551 0.363093 0.001750
0.996683 0.383628 0.001237
0.000000 0.299330 0.083784
0.003633 0.293927 0.092893
0.041539 0.296571 0.087517
0.160794 0.315548 0.058093
0.300456 0.342237 0.019626
0.448209 0.368264 0.007992
0.584375 0.385965 0.005925
0.696217 0.393308 0.003803
0.786881 0.402540 0.001536
0.858742 0.413924 0.001374
0.928629 0.426987 0.001532
0.986060 0.441946 0.001736
0.996078 0.450951 0.001631
0.000000 0.392495 0.116946
0.002613 0.386272 0.120222
0.012206 0.380216 0.120951
0.101336 0.389866 0.104772
0.248014 0.415883 0.058364
0.397720 0.443998 0.020467
0.545258 0.468443 0.009256
0.667436 0.483269 0.004193
0.763617 0.492874 0.002128
0.839651 0.501423 0.001527
0.911343 0.511429 0.001723
0.975649 0.516639 0.001989
0.994040 0.520004 0.002498
0.000000 0.481634 0.148272
0.001534 0.477528 0.148019
0.006921 0.465710 0.156088
0.054789 0.461639 0.150794
0.202688 0.481970 0.118027
0.353402 0.505611 0.075714
0.493463 0.532420 0.022231
0.630384 0.555395 0.004607
0.737663 0.569510 0.002707
0.821361 0.579420 0.002421
0.895808 0.584261 0.003011
0.964126 0.586951 0.002116
0.991848 0.589067 0.002652
0.000022 0.561576 0.185826
0.002208 0.558021 0.192358
0.005940 0.545480 0.199668
0.032973 0.533765 0.200189
0.174862 0.545141 0.184457
0.320821 0.564237 0.158364
0.455034 0.585918 0.108049
0.583475 0.608080 0.044068
0.706358 0.631636 0.010792
0.801294 0.644035 0.006908
0.877946 0.648616 0.004871
0.951827 0.653423 0.002726
0.991889 0.655308 0.002328
0.001913 0.634962 0.235358
0.004196 0.630921 0.244361
0.005296 0.622329 0.246662
0.035027 0.611102 0.244974
0.183437 0.613448 0.241248
0.313464 0.621980 0.228669
0.433410 0.639827 0.204070
0.550338 0.659077 0.162163
0.664812 0.679211 0.101505
0.771134 0.697910 0.034233
0.858425 0.708145 0.007777
0.934920 0.715159 0.004158
0.981905 0.717653 0.002684
0.003644 0.704913 0.299542
0.004750 0.701502 0.301736
0.011489 0.695157 0.299030
0.092289 0.685346 0.301121
0.227253 0.678283 0.309894
0.335673 0.681339 0.304857
0.443342 0.695987 0.288754
0.536081 0.712040 0.269937
0.634651 0.727916 0.231564
0.735953 0.743294 0.176566
0.832375 0.759414 0.105043
0.920117 0.771863 0.050348
0.977233 0.776273 0.015069
0.031500 0.771953 0.364371
0.057950 0.769781 0.366678
0.125277 0.764174 0.371394
0.216789 0.757827 0.380277
0.301339 0.750184 0.390522
0.380604 0.744656 0.388808
0.461131 0.752961 0.377096
0.542880 0.766349 0.366356
0.627231 0.780443 0.347038
0.719873 0.794814 0.310623
0.806654 0.808973 0.273621
0.899328 0.823479 0.226142
0.970098 0.832827 0.178502
0.250532 0.841971 0.466223
0.272713 0.838385 0.469441
0.309585 0.834791 0.473901
0.352874 0.830892 0.486257
0.406194 0.825005 0.493624
0.458827 0.815738 0.491596
0.518368 0.818717 0.489022
0.584456 0.830040 0.485047
0.646946 0.841667 0.472178
0.719731 0.853075 0.449832
0.803155 0.866685 0.426675
0.882078 0.879274 0.396205
0.951001 0.888833 0.367199
0.445485 0.910673 0.589150
0.456544 0.909058 0.591429
0.476459 0.907436 0.594532
0.505687 0.904949 0.603443
0.541062 0.901440 0.610852
0.575408 0.894340 0.614383
0.619915 0.895896 0.620772
0.657592 0.901713 0.619846
0.703130 0.910950 0.612854
0.750906 0.919243 0.602416
0.812899 0.929715 0.589544
0.874978 0.940510 0.572521
0.935818 0.948654 0.554509
0.030705 0.039285 0.078980
0.077628 0.033929 0.081630
0.155255 0.027138 0.085906
0.261185 0.013073 0.083022
0.388253 0.011581 0.081247
0.508352 0.008629 0.068691
0.630760 0.008160 0.056685
0.746166 0.006510 0.039146
0.838811 0.004946 0.023554
0.914123 0.010513 0.014473
0.974218 0.039406 0.008894
0.996922 0.118495 0.008005
1.000000 0.189777 0.004139
0.019344 0.084120 0.087181
0.066527 0.085964 0.089323
0.157225 0.082277 0.083809
0.264918 0.068445 0.077058
0.387615 0.050620 0.068799
0.508968 0.032673 0.058680
0.634171 0.023671 0.044538
0.747304 0.023884 0.028401
0.839305 0.035719 0.018342
0.911424 0.072062 0.009571
0.971575 0.132753 0.005997
0.996490 0.189510 0.006325
1.000000 0.238136 0.004032
0.009040 0.154323 0.100915
0.047685 0.155970 0.098882
0.143840 0.159290 0.093594
0.256311 0.163881 0.074392
0.381911 0.162744 0.050944
0.509066 0.156494 0.039507
0.632533 0.153709 0.026518
0.741295 0.161329 0.016078
0.829909 0.179245 0.010713
0.900502 0.204248 0.008343
0.960057 0.235563 0.006514
0.995161 0.273656 0.005394
0.999971 0.307009 0.002525
0.002729 0.236956 0.108756
0.019844 0.233167 0.113084
0.106485 0.235236 0.114174
0.224175 0.248127 0.092200
0.360759 0.265861 0.056441
0.499294 0.276244 0.025043
0.623224 0.282077 0.012391
0.725998 0.288859 0.009785
0.812690 0.298885 0.006797
0.887375 0.313981 0.006000
0.949794 0.334278 0.004879
0.991988 0.356525 0.005914
0.998348 0.377806 0.004476
0.002239 0.325252 0.127206
0.007159 0.317896 0.134910
0.061623 0.315921 0.134242
0.185389 0.329836 0.118207
0.320606 0.352450 0.080857
0.468276 0.376384 0.031257
0.596760 0.388748 0.012146
0.703636 0.393555 0.008348
0.792380 0.402011 0.005434
0.868824 0.412068 0.004401
0.934829 0.425976 0.005442
0.985843 0.440992 0.007179
0.996416 0.451218 0.006174
0.000682 0.414917 0.153226
0.002588 0.406127 0.159951
0.022093 0.397323 0.162948
0.137786 0.402183 0.153481
0.268592 0.424686 0.126681
0.414334 0.452060 0.075626
0.559402 0.477047 0.021498
0.672812 0.487717 0.008912
0.766662 0.494718 0.005986
0.846596 0.501792 0.004460
0.916828 0.509593 0.005391
0.975026 0.516137 0.007920
0.994716 0.519788 0.007941
0.000000 0.499918 0.182605
0.001689 0.494239 0.185269
0.007679 0.480218 0.193119
0.083092 0.473857 0.190677
0.227064 0.491080 0.170543
0.366662 0.512145 0.136160
0.506612 0.537638 0.075469
0.637089 0.560579 0.024457
0.740943 0.573122 0.008626
0.824884 0.580021 0.005769
0.899873 0.583087 0.005022
0.964501 0.585734 0.005152
0.991761 0.587004 0.006293
0.000094 0.574745 0.218529
0.002713 0.570952 0.225481
0.006944 0.558056 0.230581
0.052539 0.544802 0.229591
0.206159 0.547699 0.220276
0.335928 0.567411 0.200893
0.462472 0.588764 0.165601
0.591961 0.612095 0.103314
0.711930 0.635198 0.041285
0.806235 0.646361 0.013541
0.882768 0.650777 0.008051
0.949969 0.653583 0.004476
0.986143 0.654282 0.004397
0.002478 0.645059 0.265582
0.005444 0.641119 0.272430
0.005922 0.631477 0.272757
0.061711 0.617754 0.271382
0.208846 0.611301 0.272012
0.328275 0.622748 0.260118
0.439419 0.641130 0.241332
0.556814 0.660839 0.210161
0.669033 0.680996 0.156040
0.775881 0.699678 0.085715
0.863532 0.710660 0.037100
0.935793 0.716666 0.009688
0.980827 0.717685 0.009226
0.003956 0.712179 0.322425
0.008443 0.708084 0.322884
0.021670 0.701739 0.320087
0.120539 0.691392 0.322270
0.242916 0.681850 0.327235
0.344641 0.681992 0.326811
0.447990 0.695923 0.317890
0.542201 0.712762 0.299273
0.640558 0.729533 0.265896
0.737381 0.745220 0.220417
0.835202 0.760546 0.168783
0.921061 0.771896 0.108598
0.980958 0.776351 0.048328
0.045776 0.776293 0.382017
0.077998 0.773808 0.383890
0.148132 0.768605 0.388561
0.227641 0.761257 0.398957
0.306890 0.750652 0.402259
0.385511 0.743107 0.401449
0.469244 0.752921 0.397077
0.548546 0.767176 0.387332
0.627357 0.781276 0.369353
0.715334 0.795133 0.342268
0.809372 0.809208 0.302965
0.900207 0.822417 0.260163
0.971322 0.832045 0.225598
0.258292 0.844401 0.480716
0.281544 0.842867 0.485506
0.314870 0.839160 0.492446
0.356791 0.833620 0.498209
0.409537 0.825861 0.498160
0.465327 0.818400 0.499824
0.522326 0.819615 0.500004
0.584873 0.830007 0.496508
0.649093 0.841999 0.486474
0.716158 0.853262 0.467655
0.794603 0.866474 0.442314
0.878498 0.876944 0.409213
0.950788 0.887378 0.383657
0.448089 0.913454 0.595808
0.460539 0.913035 0.599420
0.479670 0.909969 0.604365
0.505350 0.906038 0.608603
0.541009 0.903042 0.613545
0.579545 0.898411 0.621450
0.619436 0.895778 0.626288
0.657938 0.901225 0.625824
0.703812 0.911963 0.620630
0.749853 0.920233 0.609870
0.807321 0.929618 0.596988
0.874123 0.938535 0.578828
0.936676 0.948219 0.561253
0.023616 0.039826 0.161155
0.084626 0.033715 0.167191
0.170660 0.021285 0.175307
0.277655 0.010180 0.180462
0.401171 0.008715 0.181898
0.524198 0.008230 0.172597
0.645949 0.009208 0.164813
0.755926 0.011362 0.153259
0.847205 0.006803 0.134572
0.920321 0.005847 0.121860
0.978223 0.023590 0.109561
0.998704 0.103793 0.093024
1.000000 0.182490 0.077460
0.010145 0.090215 0.159840
0.066925 0.089342 0.170144
0.170999 0.081639 0.180107
0.281808 0.067415 0.182276
0.399961 0.035818 0.173445
0.524708 0.020192 0.166660
0.648511 0.015621 0.158851
0.757285 0.018764 0.146771
0.844931 0.024706 0.134044
0.916255 0.057308 0.117933
0.974249 0.119502 0.100947
0.997670 0.184347 0.081814
1.000000 0.233713 0.068300
0.005742 0.170330 0.172123
0.041910 0.171179 0.173658
0.155499 0.170583 0.179135
0.271102 0.169574 0.178085
0.399193 0.158697 0.165254
0.524851 0.148030 0.157181
0.645747 0.141047 0.144277
0.750870 0.146252 0.129270
0.837094 0.164742 0.114298
0.907304 0.194935 0.099412
0.964409 0.227671 0.084605
0.997519 0.268515 0.066423
1.000000 0.301350 0.057223
0.003722 0.265863 0.192746
0.026349 0.267332 0.189475
0.129533 0.262667 0.190005
0.249106 0.266499 0.181435
0.384589 0.277435 0.159371
0.514436 0.278835 0.138294
0.633346 0.277989 0.111128
0.734582 0.285368 0.095364
0.821725 0.297214 0.082764
0.895970 0.309972 0.067502
0.956779 0.331390 0.058376
0.997074 0.353021 0.046605
1.000000 0.374842 0.039444
0.003743 0.367046 0.212829
0.011933 0.359610 0.207196
0.092908 0.349018 0.208702
0.212299 0.349352 0.204033
0.344154 0.363931 0.185440
0.484267 0.382063 0.147268
0.609139 0.391825 0.095974
0.714521 0.395955 0.062254
0.801691 0.402437 0.051952
0.877837 0.412527 0.041029
0.941824 0.424268 0.031882
0.989696 0.437219 0.027576
0.999624 0.449067 0.023775
0.002877 0.451391 0.222584
0.005761 0.445274 0.226560
0.040788 0.433760 0.226761
0.174799 0.425960 0.230186
0.297385 0.438302 0.219285
0.432725 0.458032 0.185029
0.570440 0.479549 0.121413
0.684564 0.493738 0.069847
0.778252 0.496497 0.034114
0.857261 0.500857 0.019359
0.925684 0.506908 0.015210
0.980722 0.513173 0.014989
0.996665 0.518540 0.013232
0.000892 0.527547 0.242266
0.002370 0.525452 0.246787
0.015302 0.512216 0.251032
0.136452 0.500853 0.253341
0.264891 0.508245 0.246725
0.388149 0.521204 0.224875
0.519153 0.543060 0.184885
0.645407 0.565190 0.130315
0.750575 0.577590 0.071820
0.833553 0.581489 0.028366
0.907403 0.582012 0.010636
0.969730 0.582991 0.007474
0.994471 0.584395 0.007900
0.000129 0.597958 0.272886
0.003693 0.594590 0.282051
0.009373 0.582172 0.281235
0.108351 0.569081 0.281257
0.242008 0.563529 0.284326
0.358240 0.575632 0.269113
0.475907 0.595512 0.241613
0.601151 0.617408 0.202695
0.717976 0.637975 0.155165
0.810267 0.648385 0.092635
0.886974 0.652306 0.038007
0.954900 0.651741 0.011212
0.990138 0.651100 0.005692
0.001648 0.661484 0.309783
0.004678 0.657910 0.316706
0.012400 0.648050 0.314710
0.119126 0.634162 0.314712
0.239088 0.624742 0.317832
0.345599 0.629230 0.313568
0.452339 0.645145 0.296450
0.567625 0.665404 0.270764
0.676573 0.683931 0.238404
0.780822 0.701317 0.191641
0.867170 0.711146 0.135708
0.939487 0.714406 0.068639
0.989345 0.715697 0.022212
0.001915 0.722593 0.357193
0.010296 0.718470 0.356059
0.051097 0.712386 0.355644
0.168665 0.700947 0.359211
0.265200 0.689523 0.360730
0.359226 0.685605 0.361447
0.452448 0.697307 0.353931
0.545235 0.713574 0.340636
0.644447 0.730848 0.321517
0.744572 0.747673 0.288813
0.838391 0.761300 0.246303
0.921439 0.770849 0.198532
0.981975 0.776081 0.142491
0.074777 0.782947 0.411290
0.114141 0.780970 0.414231
0.186493 0.775799 0.420273
0.257906 0.767205 0.426489
0.324070 0.755416 0.428218
0.399699 0.747937 0.428650
0.477960 0.755440 0.426136
0.553935 0.768552 0.422836
0.633137 0.782534 0.408184
0.716889 0.796501 0.384024
0.809963 0.810123 0.352839
0.899651 0.822192 0.315812
0.971060 0.833557 0.294086
0.276815 0.848420 0.503657
0.299555 0.846478 0.505613
0.331294 0.842594 0.507328
0.374096 0.837161 0.513430
0.422066 0.829710 0.515501
0.475619 0.822525 0.520626
0.529501 0.822151 0.520179
0.585717 0.830068 0.516486
0.649989 0.841439 0.508513
0.718486 0.853154 0.494770
0.797043 0.866527 0.476257
0.879933 0.877643 0.449611
0.952253 0.888916 0.425539
0.454685 0.915137 0.608088
0.466268 0.913928 0.609389
0.484994 0.911498 0.613007
0.512685 0.908698 0.618026
0.546878 0.906664 0.623839
0.580747 0.899945 0.630036
0.623099 0.898044 0.639169
0.662190 0.902069 0.637458
0.704194 0.910766 0.630690
0.753236 0.918975 0.622783
0.810260 0.930027 0.615260
0.875077 0.939373 0.600080
0.935796 0.947540 0.577898
0.012783 0.041135 0.263135
0.067872 0.035776 0.274991
0.192432 0.020217 0.292126
0.311818 0.006879 0.302795
0.413658 0.004757 0.300439
0.539484 0.006588 0.302546
0.665155 0.006744 0.304118
0.770469 0.007539 0.295910
0.857159 0.004342 0.274499
0.927303 0.005173 0.263577
0.981690 0.024501 0.259139
0.999837 0.118081 0.255476
1.000000 0.193519 0.244830
0.009273 0.098220 0.263023
0.053061 0.092629 0.272305
0.178958 0.080265 0.289863
0.305456 0.060833 0.301049
0.415433 0.038475 0.300420
0.543039 0.017363 0.303204
0.667989 0.010746 0.296786
0.770860 0.008993 0.285677
0.854278 0.011271 0.272653
0.922649 0.040350 0.267619
0.978435 0.117065 0.260679
0.999503 0.190194 0.248415
1.000000 0.243874 0.239938
0.004617 0.178996 0.264347
0.032458 0.177630 0.268821
0.154018 0.178120 0.280405
0.290914 0.176547 0.295024
0.415331 0.164246 0.297664
0.538815 0.138716 0.298818
0.659426 0.115865 0.291258
0.763609 0.119036 0.279510
0.846054 0.146010 0.269933
0.912731 0.190346 0.260246
0.969866 0.234334 0.252335
0.998120 0.272362 0.242274
1.000000 0.307229 0.235339
0.002931 0.288552 0.285546
0.012724 0.289194 0.287131
0.112144 0.286865 0.286730
0.271629 0.287950 0.290377
0.405779 0.289444 0.292857
0.525997 0.279270 0.288844
0.641721 0.275330 0.280564
0.743347 0.285255 0.265411
0.828970 0.297561 0.249699
0.899229 0.313713 0.238128
0.960142 0.336914 0.232872
0.997109 0.357343 0.227020
1.000000 0.377796 0.217577
0.002428 0.411080 0.317059
0.008839 0.405324 0.313039
0.094023 0.399634 0.311334
0.249871 0.389226 0.309987
0.375483 0.390831 0.301035
0.506418 0.396209 0.280103
0.620100 0.397932 0.260596
0.720130 0.400099 0.242069
0.808567 0.405608 0.224202
0.881452 0.415976 0.210843
0.944925 0.426777 0.203667
0.991509 0.439946 0.195050
0.999877 0.451907 0.184588
0.003625 0.496249 0.334077
0.007521 0.494676 0.332446
0.094569 0.485352 0.326024
0.227646 0.472990 0.329423
0.334656 0.465743 0.321039
0.460337 0.473710 0.299704
0.588182 0.491588 0.267005
0.694575 0.500625 0.231451
0.783457 0.499850 0.202952
0.861415 0.502559 0.175849
0.929360 0.508737 0.164773
0.984409 0.513035 0.153458
0.997845 0.519859 0.145561
0.006803 0.566355 0.346576
0.015211 0.565024 0.343086
0.065386 0.554441 0.337107
0.201307 0.540806 0.338754
0.306219 0.531354 0.336494
0.414995 0.534963 0.325857
0.543405 0.558409 0.306863
0.660358 0.575823 0.268612
0.754841 0.579510 0.228801
0.838295 0.581619 0.183897
0.911019 0.583000 0.139792
0.974247 0.582116 0.105796
0.996988 0.584528 0.091163
0.005048 0.628710 0.359950
0.011154 0.625566 0.360319
0.046325 0.615460 0.353225
0.185349 0.601608 0.355953
0.291841 0.589927 0.358875
0.389420 0.587866 0.353541
0.500168 0.607100 0.337545
0.617645 0.627455 0.305696
0.725554 0.644526 0.279072
0.813189 0.650847 0.240069
0.890014 0.653437 0.189979
0.959885 0.651104 0.125261
0.996428 0.648187 0.064044
0.004654 0.684119 0.378616
0.008265 0.681648 0.380609
0.061123 0.672273 0.377308
0.188459 0.659005 0.381879
0.285424 0.644753 0.383438
0.375587 0.637329 0.379505
0.473590 0.652349 0.366687
0.581012 0.672766 0.350731
0.688107 0.691445 0.328152
0.785485 0.706640 0.302472
0.868517 0.713262 0.258462
0.938122 0.713912 0.202816
0.990799 0.712892 0.143568
0.010904 0.738010 0.408299
0.039758 0.734679 0.407614
0.125270 0.728304 0.410393
0.220819 0.716250 0.414853
0.304648 0.700159 0.414833
0.384950 0.690067 0.413966
0.471915 0.701246 0.408743
0.558773 0.718507 0.402202
0.651161 0.734885 0.386664
0.750548 0.753138 0.371878
0.842698 0.765276 0.336771
0.916105 0.769992 0.291164
0.979011 0.773569 0.257347
0.132637 0.792877 0.455888
0.174369 0.790795 0.458059
0.232435 0.786331 0.462440
0.301427 0.777284 0.468646
0.362763 0.765419 0.470419
0.421689 0.754251 0.467628
0.488634 0.756791 0.465616
0.559512 0.768632 0.460894
0.636850 0.783498 0.451865
0.725493 0.799876 0.440491
0.814959 0.811903 0.409159
0.896183 0.822686 0.380994
0.967456 0.833608 0.365971
0.305110 0.855214 0.535810
0.318790 0.853421 0.536456
0.353827 0.848659 0.533207
0.399071 0.842912 0.534687
0.442368 0.835602 0.539079
0.486939 0.826147 0.542920
0.538237 0.823586 0.545712
0.591587 0.829145 0.544014
0.655601 0.841350 0.540730
0.722822 0.853653 0.529183
0.800175 0.866251 0.511023
0.879792 0.878731 0.490700
0.950378 0.889818 0.468946
0.465497 0.919462 0.626431
0.474314 0.917909 0.626728
0.493684 0.915229 0.626264
0.520778 0.912454 0.629937
0.550647 0.908545 0.634133
0.584176 0.902217 0.640727
0.625512 0.899531 0.650923
0.665790 0.901333 0.652385
0.708268 0.909809 0.650625
0.758146 0.918576 0.641648
0.811992 0.928243 0.633524
0.875072 0.939868 0.622253
0.935926 0.948612 0.603941
0.009565 0.041702 0.382099
0.049919 0.036743 0.391157
0.191981 0.024630 0.414809
0.350441 0.007086 0.438308
0.474026 0.003337 0.447269
0.569993 0.003884 0.439966
0.681890 0.003863 0.446800
0.784434 0.003860 0.448066
0.863575 0.003394 0.428618
0.929841 0.006314 0.412089
0.978387 0.008446 0.392651
0.998238 0.039632 0.380542
1.000000 0.168379 0.383994
0.010715 0.105518 0.376533
0.037110 0.098700 0.384585
0.179019 0.086275 0.405914
0.335748 0.054880 0.429522
0.467229 0.030794 0.444127
0.571610 0.015579 0.443771
0.682643 0.009594 0.446683
0.782435 0.010956 0.441749
0.861165 0.008044 0.423141
0.929208 0.012389 0.406331
0.984321 0.039776 0.390930
0.999626 0.142600 0.386366
1.000000 0.244522 0.389114
0.006114 0.183251 0.359837
0.019247 0.182265 0.376132
0.147730 0.185813 0.394472
0.313560 0.182602 0.422087
0.459076 0.173931 0.442777
0.562526 0.150256 0.439144
0.674096 0.120066 0.440191
0.775669 0.109384 0.434893
0.853480 0.112791 0.416589
0.919993 0.152085 0.402406
0.973940 0.214951 0.395047
0.998297 0.272787 0.391713
1.000000 0.325508 0.388568
0.003498 0.287741 0.369190
0.011128 0.286763 0.379140
0.099438 0.289996 0.389786
0.279054 0.297699 0.409852
0.437366 0.303311 0.435166
0.550689 0.292701 0.431038
0.657497 0.281802 0.427379
0.755586 0.288446 0.422605
0.834874 0.301246 0.408780
0.901887 0.323591 0.397755
0.959841 0.349819 0.391149
0.995759 0.375111 0.385815
0.999987 0.398894 0.375338
0.002898 0.421540 0.410510
0.005439 0.421090 0.412936
0.048730 0.418238 0.415143
0.249116 0.413210 0.416234
0.402889 0.414892 0.423231
0.531579 0.413803 0.421354
0.635417 0.408513 0.414505
0.730473 0.406850 0.407291
0.811413 0.416323 0.388971
0.881683 0.425372 0.374359
0.942249 0.437272 0.365964
0.988849 0.451958 0.360867
0.999486 0.468442 0.349964
0.001696 0.541962 0.447133
0.003966 0.538682 0.444116
0.052119 0.533414 0.439778
0.248402 0.519402 0.437573
0.383099 0.506791 0.432393
0.494687 0.502699 0.423352
0.607917 0.508116 0.408111
0.702811 0.509956 0.389731
0.786154 0.508168 0.366931
0.861366 0.509311 0.347257
0.924910 0.518072 0.336619
0.982603 0.522388 0.336524
0.998939 0.529508 0.327545
0.004749 0.609263 0.457606
0.026977 0.609474 0.455598
0.144052 0.601631 0.451822
0.278618 0.588102 0.446952
0.369192 0.571699 0.442270
0.455499 0.560173 0.433044
0.569698 0.575251 0.417717
0.672669 0.586896 0.394620
0.759078 0.585738 0.367041
0.841996 0.585232 0.337683
0.907646 0.589122 0.316838
0.971978 0.588654 0.305369
0.996003 0.589479 0.298077
0.070205 0.664408 0.469958
0.129927 0.661291 0.467895
0.209498 0.653535 0.462503
0.281462 0.640158 0.452362
0.354867 0.624431 0.448218
0.432364 0.609448 0.444809
0.531475 0.620218 0.431390
0.638317 0.637424 0.409719
0.730706 0.647581 0.390140
0.815101 0.653109 0.369715
0.889054 0.654978 0.336202
0.958085 0.651862 0.299153
0.994368 0.648782 0.269736
0.145755 0.711459 0.480045
0.165070 0.708657 0.474928
0.215400 0.701750 0.470843
0.283746 0.690646 0.469570
0.353885 0.675297 0.463866
0.419526 0.658230 0.457591
0.503729 0.662970 0.447334
0.601056 0.680520 0.435357
0.694545 0.695539 0.424859
0.788355 0.710891 0.408151
0.868260 0.716642 0.378705
0.937244 0.714854 0.337099
0.988496 0.712554 0.296063
0.158917 0.757897 0.487872
0.184697 0.754950 0.485374
0.233138 0.747932 0.482618
0.292494 0.737893 0.482874
0.364698 0.724179 0.482530
0.424140 0.707735 0.477776
0.492570 0.707047 0.472338
0.574064 0.722518 0.467329
0.656790 0.738369 0.458186
0.756933 0.756995 0.444934
0.844584 0.769368 0.424894
0.915921 0.772545 0.395999
0.977191 0.776246 0.372512
0.229638 0.807423 0.515861
0.249253 0.804066 0.516602
0.287950 0.798525 0.515297
0.347824 0.792241 0.518802
0.405054 0.778984 0.517191
0.455434 0.765830 0.516058
0.503377 0.759148 0.513263
0.569334 0.769523 0.510010
0.644394 0.785969 0.506024
0.733675 0.803297 0.500232
0.817795 0.815129 0.481704
0.893838 0.824482 0.461356
0.966075 0.835530 0.446964
0.336243 0.863601 0.566750
0.347908 0.861301 0.569850
0.379910 0.857025 0.569301
0.423346 0.852016 0.569614
0.463070 0.844208 0.571132
0.506944 0.834073 0.575989
0.551067 0.826805 0.578599
0.599972 0.830435 0.578231
0.656803 0.842290 0.574702
0.723565 0.855565 0.567468
0.797863 0.866663 0.553091
0.875231 0.878982 0.536511
0.950120 0.891464 0.519577
0.468610 0.923297 0.640908
0.481370 0.923719 0.644704
0.500170 0.920596 0.646015
0.525098 0.915797 0.646133
0.557132 0.914436 0.652743
0.591721 0.907690 0.659299
0.630962 0.902917 0.668186
0.670900 0.901975 0.672176
0.708428 0.907043 0.668623
0.759017 0.919230 0.667089
0.812477 0.928334 0.656990
0.873121 0.938961 0.647734
0.935517 0.949065 0.632940
0.010066 0.040894 0.503617
0.034362 0.034065 0.505330
0.189082 0.023028 0.525676
0.357323 0.007193 0.548697
0.516944 0.004447 0.572829
0.628834 0.003484 0.577239
0.708425 0.002133 0.572742
0.795911 0.002638 0.572676
0.870380 0.002411 0.566644
0.931841 0.004213 0.552426
0.977262 0.007485 0.532257
0.997973 0.028653 0.513634
1.000000 0.133360 0.497977
0.009458 0.111307 0.489779
0.026728 0.104292 0.497912
0.177185 0.091648 0.514857
0.344948 0.059160 0.539630
0.509259 0.036294 0.570386
0.627994 0.019625 0.580433
0.704962 0.011778 0.573038
0.788715 0.011962 0.570864
0.866725 0.010805 0.565828
0.931162 0.020456 0.549907
0.982050 0.058470 0.531028
0.997529 0.132295 0.509664
0.999944 0.213221 0.497860
0.009321 0.189863 0.465883
0.015546 0.189824 0.484284
0.144089 0.189764 0.504668
0.321775 0.182694 0.532368
0.493499 0.177255 0.565468
0.616887 0.169876 0.576936
0.694468 0.150404 0.565989
0.783165 0.135267 0.566255
0.858764 0.145078 0.558582
0.922167 0.174426 0.542029
0.974308 0.214956 0.523082
