filter-app-android/app/src/main/assets/luts/negative_new/kodak_portra_400.cube
# Created by: G'MIC (https://gmic.eu)
TITLE "kodak_portra_400"
# LUT size
LUT_3D_SIZE 5
# Data domain
DOMAIN_MIN 0.0 0.0 0.0
DOMAIN_MAX 1.0 1.0 1.0
# LUT data points
0.028550 0.036041 0.035365
0.253789 0.024431 0.028910
0.621358 0.005330 0.008199
0.909650 0.018604 0.000441
1.000000 0.204886 0.001413
0.000808 0.211412 0.060882
0.206377 0.236648 0.029190
0.612486 0.284552 0.004522
0.876747 0.317290 0.001911
0.996683 0.383628 0.001237
0.000000 0.481634 0.148272
0.054789 0.461639 0.150794
0.493463 0.532420 0.022231
0.821361 0.579420 0.002421
0.991848 0.589067 0.002652
0.003644 0.704913 0.299542
0.092289 0.685346 0.301121
0.443342 0.695987 0.288754
0.735953 0.743294 0.176566
0.977233 0.776273 0.015069
0.445485 0.910673 0.589150
0.505687 0.904949 0.603443
0.619915 0.895896 0.620772
0.750906 0.919243 0.602416
0.935818 0.948654 0.554509
0.012783 0.041135 0.263135
0.311818 0.006879 0.302795
0.665155 0.006744 0.304118
0.927303 0.005173 0.263577
1.000000 0.193519 0.244830
0.002931 0.288552 0.285546
0.271629 0.287950 0.290377
0.641721 0.275330 0.280564
0.899229 0.313713 0.238128
1.000000 0.377796 0.217577
0.006803 0.566355 0.346576
0.201307 0.540806 0.338754
0.543405 0.558409 0.306863
0.838295 0.581619 0.183897
0.996988 0.584528 0.091163
0.010904 0.738010 0.408299
0.220819 0.716250 0.414853
0.471915 0.701246 0.408743
0.750548 0.753138 0.371878
0.979011 0.773569 0.257347
0.465497 0.919462 0.626431
0.520778 0.912454 0.629937
0.625512 0.899531 0.650923
0.758146 0.918576 0.641648
0.935926 0.948612 0.603941
0.010351 0.046127 0.598910
0.368569 0.007878 0.634167
0.760773 0.002922 0.690567
0.935943 0.005893 0.662752
1.000000 0.188867 0.614490
0.006062 0.287129 0.550344
0.297326 0.300645 0.606826
0.716289 0.338167 0.663581
0.906659 0.351909 0.649135
0.998161 0.416761 0.607519
0.001096 0.623279 0.614173
0.240942 0.620906 0.617125
0.620848 0.619205 0.626054
0.845191 0.620066 0.605488
0.992200 0.622820 0.579121
0.318169 0.806249 0.651302
0.447422 0.791413 0.646373
0.568581 0.751108 0.620198
0.768748 0.762510 0.596964
0.971871 0.770276 0.543116
0.526006 0.940476 0.717271
0.559032 0.934850 0.709015
0.644337 0.918071 0.714970
0.768415 0.918306 0.722550
0.936662 0.949017 0.700963
0.253246 0.126144 0.811156
0.470055 0.099163 0.825614
0.753814 0.126171 0.856701
0.960753 0.278591 0.879934
1.000000 0.352677 0.842820
0.144148 0.329243 0.795212
0.409013 0.340600 0.808038
0.722241 0.415214 0.843464
0.934273 0.484355 0.865577
0.996978 0.509065 0.844318
0.005591 0.561306 0.744218
0.233092 0.565364 0.749366
0.615436 0.614889 0.798847
0.887246 0.685343 0.845769
0.995523 0.680659 0.838433
0.248119 0.811302 0.808056
0.399647 0.810293 0.812510
0.607597 0.808027 0.811144
0.813324 0.806848 0.808406
0.979562 0.811736 0.798433
0.529841 0.975973 0.845614
0.592448 0.967376 0.845929
0.704472 0.960172 0.848212
0.799812 0.934610 0.832290
0.945250 0.948744 0.826350
0.522347 0.378562 0.974392
0.600168 0.388446 0.977729
0.750016 0.414184 0.980226
0.923170 0.492476 0.984673
0.999855 0.545776 0.986291
0.500943 0.498729 0.965247
0.583904 0.504984 0.968383
0.740022 0.536467 0.972943
0.915033 0.591488 0.983096
0.998859 0.627565 0.984036
0.426439 0.648597 0.949951
0.518718 0.653408 0.952540
0.694618 0.673686 0.961701
0.886177 0.719463 0.973898
0.996881 0.754288 0.980708
0.327920 0.796330 0.942804
0.413543 0.790769 0.938880
0.577536 0.783762 0.939695
0.817722 0.819088 0.959783
0.990500 0.871880 0.974979
0.474274 0.969258 0.969862
0.534429 0.972686 0.968118
0.666623 0.968615 0.971847
0.820069 0.966433 0.969075
0.973811 0.975828 0.972428
